;FLAVOR:Marlin
;TIME:12920
;Filament used: 9.70462m
;Layer height: 0.2
;MINX:26.268
;MINY:87.265
;MINZ:0.3
;MAXX:193.732
;MAXY:132.735
;MAXZ:14.1
;Generated with Cura_SteamEngine 4.2.1
M140 S50
M105
M190 S50
M104 S205
M105
M109 S205
M82 ;absolute extrusion mode
M201 X500.00 Y500.00 Z100.00 E5000.00 ;Setup machine max acceleration
M203 X500.00 Y500.00 Z10.00 E50.00 ;Setup machine max feedrate
M204 P500.00 R1000.00 T500.00 ;Setup Print/Retract/Travel acceleration
M205 X8.00 Y8.00 Z0.40 E5.00 ;Setup Jerk
M220 S100 ;Reset Feedrate
M221 S100 ;Reset Flowrate

G28 ;Home

G92 E0 ;Reset Extruder
G1 Z2.0 F3000 ;Move Z Axis up
G1 X10.1 Y20 Z0.28 F5000.0 ;Move to start position
G1 X10.1 Y200.0 Z0.28 F1500.0 E15 ;Draw the first line
G1 X10.4 Y200.0 Z0.28 F5000.0 ;Move to side a little
G1 X10.4 Y20 Z0.28 F1500.0 E30 ;Draw the second line
G92 E0 ;Reset Extruder
G1 Z2.0 F3000 ;Move Z Axis up

G92 E0
G92 E0
G1 F2700 E-5
;LAYER_COUNT:69
;LAYER:0
M107
;MESH:MotorHolder-04.stl
G0 F6000 X36.768 Y97.041 Z0.3
;TYPE:WALL-INNER
G1 F2700 E0
G1 F600 X36.253 Y97.498 E0.03779
G1 X35.863 Y98.065 E0.07555
G1 X35.618 Y98.708 E0.11331
G1 X35.534 Y99.393 E0.15119
G1 X35.618 Y100.077 E0.18901
G1 X35.863 Y100.722 E0.22687
G1 X36.253 Y101.289 E0.26464
G1 X36.768 Y101.746 E0.30243
G1 X37.379 Y102.065 E0.34025
G1 X38.048 Y102.231 E0.37808
G1 X38.737 Y102.231 E0.41589
G1 X39.406 Y102.065 E0.45372
G1 X40.017 Y101.746 E0.49154
G1 X40.532 Y101.289 E0.52933
G1 X40.922 Y100.722 E0.5671
G1 X41.167 Y100.077 E0.60496
G1 X41.25 Y99.393 E0.64277
G1 X41.167 Y98.71 E0.68053
G1 X40.922 Y98.065 E0.7184
G1 X40.532 Y97.498 E0.75616
G1 X40.017 Y97.041 E0.79395
G1 X39.406 Y96.722 E0.83178
G1 X38.737 Y96.556 E0.8696
G1 X38.048 Y96.556 E0.90742
G1 X37.379 Y96.722 E0.94524
G1 X36.768 Y97.041 E0.98307
G1 F2700 E-4.01693
G1 F600 Z0.5
G0 F6000 X57.074 Y98.065 Z0.5
G1 F600 Z0.3
G1 F2700 E0.98307
G1 F600 X56.832 Y98.71 E1.02088
G1 X56.748 Y99.393 E1.05864
G1 X56.832 Y100.077 E1.09646
G1 X57.074 Y100.722 E1.13427
G1 X57.466 Y101.289 E1.1721
G1 X57.982 Y101.746 E1.20992
G1 X58.592 Y102.065 E1.2477
G1 X59.261 Y102.231 E1.28553
G1 X59.952 Y102.231 E1.32345
G1 X60.619 Y102.065 E1.36117
G1 X61.23 Y101.746 E1.399
G1 X61.746 Y101.289 E1.43682
G1 X62.137 Y100.722 E1.47462
G1 X62.38 Y100.077 E1.51245
G1 X62.464 Y99.393 E1.55027
G1 X62.38 Y98.709 E1.58809
G1 X62.137 Y98.065 E1.62586
G1 X61.746 Y97.498 E1.66366
G1 X61.23 Y97.041 E1.70149
G1 X60.619 Y96.722 E1.73931
G1 X59.952 Y96.556 E1.77703
G1 X59.261 Y96.556 E1.81495
G1 X58.592 Y96.722 E1.85278
G1 X57.982 Y97.041 E1.89056
G1 X57.466 Y97.498 E1.92839
G1 X57.074 Y98.065 E1.96622
G1 F2700 E-3.03378
G1 F600 Z0.5
G0 F6000 X70.012 Y103.6 Z0.5
G1 F600 Z0.3
G1 F2700 E1.96622
G1 F600 X166.587 Y103.6 E7.26618
G1 X168.212 Y101.239 E7.42347
G1 X169.735 Y99.642 E7.54458
G1 X171.481 Y98.313 E7.665
G1 X173.403 Y97.283 E7.78467
G1 X175.493 Y96.556 E7.9061
G1 X177.653 Y96.171 E8.02651
G1 X179.851 Y96.133 E8.14715
G1 X182.048 Y96.444 E8.26893
G1 X184.143 Y97.09 E8.38924
G1 X186.108 Y98.061 E8.50952
G1 X187.913 Y99.342 E8.63099
G1 X189.477 Y100.875 E8.75118
G1 X190.796 Y102.66 E8.87298
G1 X191.803 Y104.606 E8.99323
G1 X192.497 Y106.709 E9.11476
G1 X192.847 Y108.868 E9.23479
G1 X192.852 Y111.074 E9.35585
G1 X192.507 Y113.258 E9.4772
G1 X191.824 Y115.348 E9.59786
G1 X190.821 Y117.302 E9.7184
G1 X189.515 Y119.081 E9.83951
G1 X187.953 Y120.625 E9.96005
G1 X186.156 Y121.909 E10.08125
G1 X184.183 Y122.892 E10.20222
G1 X182.047 Y123.555 E10.32496
G1 X179.873 Y123.868 E10.4455
G1 X177.7 Y123.834 E10.56477
G1 X175.536 Y123.456 E10.68532
G1 X173.448 Y122.739 E10.80648
G1 X171.503 Y121.701 E10.92747
G1 X169.757 Y120.375 E11.04779
G1 X168.231 Y118.78 E11.16893
G1 X166.604 Y116.425 E11.32601
G1 X162.439 Y116.4 E11.55459
G1 X70.014 Y116.4 E16.6268
G1 X69.685 Y117.176 E16.67306
G1 X68.59 Y119.779 E16.82803
G1 X67.15 Y122.248 E16.98489
G1 X65.405 Y124.504 E17.14141
G1 X65.374 Y124.534 E17.14378
G1 X63.374 Y126.518 E17.29838
G1 X61.093 Y128.255 E17.45573
G1 X58.576 Y129.69 E17.61473
G1 X55.97 Y130.76 E17.76933
G1 X53.201 Y131.492 E17.92651
G1 X50.377 Y131.855 E18.08276
G1 X50.327 Y131.855 E18.08551
G1 X47.508 Y131.847 E18.24021
G1 X44.684 Y131.468 E18.39658
G1 X41.873 Y130.702 E18.55647
G1 X39.29 Y129.627 E18.71001
G1 X36.798 Y128.183 E18.86807
G1 X34.54 Y126.445 E19.02445
G1 X32.517 Y124.415 E19.18173
G1 X30.778 Y122.145 E19.33865
G1 X30.761 Y122.114 E19.3406
G1 X29.354 Y119.673 E19.49522
G1 X28.26 Y117.028 E19.6523
G1 X27.513 Y114.213 E19.81213
G1 X27.148 Y111.434 E19.96595
G1 X27.153 Y108.531 E20.12526
G1 X27.519 Y105.744 E20.27952
G1 X28.26 Y102.972 E20.43699
G1 X29.354 Y100.326 E20.59412
G1 X30.779 Y97.854 E20.75071
G1 X32.513 Y95.589 E20.90726
G1 X34.57 Y93.532 E21.0669
G1 X36.802 Y91.814 E21.22148
G1 X36.835 Y91.795 E21.22357
G1 X39.31 Y90.366 E21.38041
G1 X41.905 Y89.284 E21.5347
G1 X44.684 Y88.532 E21.6927
G1 X47.508 Y88.153 E21.84906
G1 X50.378 Y88.145 E22.00657
G1 X53.201 Y88.508 E22.16277
G1 X55.966 Y89.239 E22.31972
G1 X58.612 Y90.325 E22.47669
G1 X61.098 Y91.748 E22.63389
G1 X63.376 Y93.483 E22.79103
G1 X65.4 Y95.49 E22.94746
G1 X67.15 Y97.752 E23.10441
G1 X68.592 Y100.223 E23.26142
G1 X70.012 Y103.6 E23.46246
G1 F2700 E18.46246
G1 F600 Z0.5
G0 F6000 X57.074 Y119.278 Z0.5
G1 F600 Z0.3
G1 F2700 E23.46246
G1 F600 X56.832 Y119.923 E23.50027
G1 X56.748 Y120.607 E23.53809
G1 X56.832 Y121.29 E23.57585
G1 X57.074 Y121.935 E23.61366
G1 X57.466 Y122.502 E23.65149
G1 X57.982 Y122.959 E23.68931
G1 X58.592 Y123.278 E23.72709
G1 X59.261 Y123.444 E23.76492
G1 X59.952 Y123.444 E23.80284
G1 X60.619 Y123.278 E23.84056
G1 X61.23 Y122.959 E23.87839
G1 X61.746 Y122.502 E23.91622
G1 X62.137 Y121.935 E23.95401
G1 X62.38 Y121.291 E23.99179
G1 X62.464 Y120.607 E24.02961
G1 X62.38 Y119.923 E24.06743
G1 X62.137 Y119.278 E24.10525
G1 X61.746 Y118.711 E24.14305
G1 X61.23 Y118.254 E24.18088
G1 X60.619 Y117.935 E24.2187
G1 X59.952 Y117.769 E24.25642
G1 X59.261 Y117.769 E24.29435
G1 X58.592 Y117.935 E24.33217
G1 X57.982 Y118.254 E24.36995
G1 X57.466 Y118.711 E24.40778
G1 X57.074 Y119.278 E24.44561
G1 F2700 E19.44561
G1 F600 Z0.5
G0 F6000 X50.922 Y118.39 Z0.5
G1 F600 Z0.3
G1 F2700 E24.44561
G1 F600 X51.102 Y118.324 E24.45613
G1 X52.733 Y117.755 E24.55093
G1 X54.365 Y116.729 E24.65672
G1 X55.728 Y115.366 E24.7625
G1 X56.753 Y113.734 E24.86827
G1 X57.391 Y111.916 E24.974
G1 X57.606 Y110 E25.07981
G1 X57.389 Y108.077 E25.18601
G1 X57.323 Y107.897 E25.19653
G1 X56.754 Y106.266 E25.29133
G1 X55.728 Y104.634 E25.39712
G1 X54.365 Y103.271 E25.50291
G1 X52.733 Y102.246 E25.60867
G1 X50.915 Y101.608 E25.71441
G1 X48.999 Y101.393 E25.82021
G1 X47.082 Y101.608 E25.92608
G1 X45.265 Y102.246 E26.03176
G1 X43.633 Y103.271 E26.13752
G1 X42.27 Y104.634 E26.24331
G1 X41.245 Y106.266 E26.34907
G1 X40.607 Y108.084 E26.45481
G1 X40.392 Y110 E26.56061
G1 X40.609 Y111.923 E26.66682
G1 X40.673 Y112.098 E26.67704
G1 X41.244 Y113.734 E26.77214
G1 X42.27 Y115.366 E26.87793
G1 X43.633 Y116.729 E26.98371
G1 X45.265 Y117.754 E27.08947
G1 X47.083 Y118.392 E27.19521
G1 X48.999 Y118.607 E27.30102
G1 X50.922 Y118.39 E27.40722
G1 F2700 E22.40722
G1 F600 Z0.5
G0 F6000 X36.768 Y118.254 Z0.5
G1 F600 Z0.3
G1 F2700 E27.40722
G1 F600 X36.253 Y118.711 E27.44501
G1 X35.863 Y119.278 E27.48277
G1 X35.618 Y119.923 E27.52064
G1 X35.534 Y120.607 E27.55846
G1 X35.618 Y121.292 E27.59633
G1 X35.863 Y121.935 E27.63409
G1 X36.253 Y122.502 E27.67186
G1 X36.768 Y122.959 E27.70965
G1 X37.379 Y123.278 E27.74747
G1 X38.048 Y123.444 E27.7853
G1 X38.737 Y123.444 E27.82311
G1 X39.406 Y123.278 E27.86094
G1 X40.017 Y122.959 E27.89877
G1 X40.532 Y122.502 E27.93655
G1 X40.922 Y121.935 E27.97432
G1 X41.167 Y121.29 E28.01218
G1 X41.25 Y120.607 E28.04994
G1 X41.167 Y119.923 E28.08775
G1 X40.922 Y119.278 E28.12562
G1 X40.532 Y118.711 E28.16339
G1 X40.017 Y118.254 E28.20117
G1 X39.406 Y117.935 E28.239
G1 X38.737 Y117.769 E28.27683
G1 X38.048 Y117.769 E28.31464
G1 X37.379 Y117.935 E28.35246
G1 X36.768 Y118.254 E28.39029
G1 F2700 E23.39029
G1 F600 Z0.5
G0 F6000 X174.333 Y112.422 Z0.5
G1 F600 Z0.3
G1 F2700 E28.39029
G1 F600 X175.059 Y113.48 E28.46071
G1 X176.007 Y114.321 E28.53026
G1 X177.126 Y114.912 E28.5997
G1 X178.358 Y115.218 E28.66937
G1 X179.624 Y115.221 E28.73885
G1 X180.857 Y114.92 E28.8085
G1 X181.979 Y114.332 E28.87802
G1 X182.928 Y113.492 E28.94757
G1 X183.65 Y112.452 E29.01705
G1 X184.096 Y111.283 E29.08571
G1 X184.255 Y110.025 E29.1553
G1 X184.109 Y108.766 E29.22486
G1 X183.665 Y107.578 E29.29446
G1 X182.939 Y106.52 E29.36488
G1 X181.992 Y105.679 E29.43438
G1 X180.872 Y105.088 E29.50388
G1 X179.64 Y104.782 E29.57354
G1 X178.374 Y104.779 E29.64302
G1 X177.141 Y105.08 E29.71267
G1 X176.02 Y105.668 E29.78214
G1 X175.07 Y106.508 E29.85174
G1 X174.348 Y107.548 E29.92122
G1 X173.902 Y108.717 E29.98988
G1 X173.743 Y109.975 E30.05947
G1 X173.889 Y111.234 E30.12902
G1 X174.333 Y112.422 E30.19862
G0 F6000 X174.726 Y112.218
G1 F600 X175.391 Y113.187 E30.26312
G1 X176.259 Y113.957 E30.3268
G1 X177.284 Y114.498 E30.3904
G1 X178.412 Y114.778 E30.45419
G1 X179.572 Y114.781 E30.51785
G1 X180.7 Y114.505 E30.58158
G1 X181.728 Y113.967 E30.64525
G1 X182.597 Y113.198 E30.70893
G1 X183.258 Y112.245 E30.77258
G1 X183.666 Y111.175 E30.83543
G1 X183.812 Y110.023 E30.89915
G1 X183.678 Y108.87 E30.96285
G1 X183.272 Y107.782 E31.02658
G1 X182.607 Y106.813 E31.09108
G1 X181.74 Y106.043 E31.15472
G1 X180.714 Y105.502 E31.21837
G1 X179.586 Y105.222 E31.28215
G1 X178.426 Y105.219 E31.34581
G1 X177.298 Y105.495 E31.40954
G1 X176.271 Y106.033 E31.47317
G1 X175.401 Y106.802 E31.53689
G1 X174.74 Y107.755 E31.60054
G1 X174.332 Y108.825 E31.66339
G1 X174.186 Y109.977 E31.72711
G1 X174.32 Y111.13 E31.79081
G1 X174.726 Y112.218 E31.85454
G1 F2700 E26.85454
G1 F600 Z0.5
G0 F6000 X70.304 Y103.16 Z0.5
G1 F600 Z0.3
G1 F2700 E31.85454
G1 F600 X166.356 Y103.16 E37.1258
G1 X167.868 Y100.962 E37.27221
G1 X169.439 Y99.315 E37.39712
G1 X171.246 Y97.94 E37.52174
G1 X173.227 Y96.878 E37.64509
G1 X175.377 Y96.13 E37.77001
G1 X177.612 Y95.732 E37.8946
G1 X179.88 Y95.692 E38.01908
G1 X182.14 Y96.012 E38.14435
G1 X184.306 Y96.68 E38.26874
G1 X186.338 Y97.684 E38.39313
G1 X188.194 Y99.001 E38.51802
G1 X189.812 Y100.588 E38.6424
G1 X191.17 Y102.425 E38.76777
G1 X192.21 Y104.435 E38.89196
G1 X192.925 Y106.601 E39.01714
G1 X193.287 Y108.835 E39.14134
G1 X193.292 Y111.111 E39.26625
G1 X192.937 Y113.358 E39.39109
G1 X192.232 Y115.516 E39.51568
G1 X191.195 Y117.536 E39.64029
G1 X189.85 Y119.368 E39.76501
G1 X188.236 Y120.964 E39.88958
G1 X186.384 Y122.287 E40.01449
G1 X184.35 Y123.301 E40.13921
G1 X182.139 Y123.987 E40.26626
G1 X179.904 Y124.309 E40.39018
G1 X177.661 Y124.274 E40.51329
G1 X175.424 Y123.883 E40.63791
G1 X173.273 Y123.144 E40.76273
G1 X171.266 Y122.073 E40.88758
G1 X169.462 Y120.703 E41.01189
G1 X167.889 Y119.059 E41.13676
G1 X166.372 Y116.864 E41.28319
G1 X162.438 Y116.84 E41.49909
G1 X70.305 Y116.84 E46.55527
G1 X70.09 Y117.347 E46.5855
G1 X68.985 Y119.976 E46.742
G1 X67.517 Y122.493 E46.90191
G1 X65.734 Y124.797 E47.06179
G1 X65.683 Y124.847 E47.06571
G1 X63.661 Y126.853 E47.22202
G1 X61.336 Y128.623 E47.38238
G1 X58.802 Y130.073 E47.5426
G1 X58.744 Y130.097 E47.54604
G1 X56.111 Y131.177 E47.70223
G1 X53.287 Y131.924 E47.86253
G1 X50.402 Y132.295 E48.02216
G1 X50.326 Y132.295 E48.02634
G1 X47.478 Y132.287 E48.18263
G1 X44.595 Y131.9 E48.34227
G1 X41.766 Y131.134 E48.50311
G1 X41.707 Y131.11 E48.50661
G1 X39.09 Y130.02 E48.66219
G1 X36.555 Y128.551 E48.82298
G1 X34.246 Y126.774 E48.98287
G1 X32.187 Y124.708 E49.14295
G1 X30.411 Y122.389 E49.30324
G1 X30.379 Y122.333 E49.30678
G1 X28.957 Y119.865 E49.4631
G1 X27.843 Y117.172 E49.62304
G1 X27.088 Y114.345 E49.78362
G1 X27.078 Y114.277 E49.78739
G1 X26.708 Y111.461 E49.94326
G1 X26.708 Y108.54 E50.10356
G1 X26.717 Y108.473 E50.10727
G1 X27.087 Y105.656 E50.26319
G1 X27.843 Y102.828 E50.42384
G1 X28.957 Y100.134 E50.58383
G1 X30.41 Y97.613 E50.74351
G1 X32.187 Y95.292 E50.90393
G1 X34.245 Y93.228 E51.06389
G1 X34.302 Y93.183 E51.06787
G1 X36.556 Y91.448 E51.22397
G1 X36.615 Y91.414 E51.22771
G1 X39.083 Y89.983 E51.38427
G1 X39.142 Y89.959 E51.38777
G1 X41.764 Y88.866 E51.54366
G1 X41.839 Y88.846 E51.54792
G1 X44.595 Y88.1 E51.70461
G1 X47.478 Y87.713 E51.86425
G1 X50.402 Y87.705 E52.02471
G1 X53.287 Y88.076 E52.18435
G1 X56.107 Y88.822 E52.34443
G1 X58.808 Y89.93 E52.50464
G1 X61.341 Y91.38 E52.66482
G1 X63.663 Y93.148 E52.82498
G1 X65.73 Y95.198 E52.98475
G1 X67.517 Y97.507 E53.14498
G1 X68.987 Y100.026 E53.30504
G1 X70.304 Y103.16 E53.4916
G1 F2700 E48.4916
G1 F600 Z0.5
G0 F6000 X57.467 Y98.271 Z0.5
G1 F600 Z0.3
G1 F2700 E53.4916
G1 F600 X57.262 Y98.816 E53.52355
G1 X57.191 Y99.393 E53.55546
G1 X57.262 Y99.971 E53.58741
G1 X57.467 Y100.516 E53.61937
G1 X57.798 Y100.995 E53.65132
G1 X58.234 Y101.381 E53.68328
G1 X58.749 Y101.651 E53.71519
G1 X59.315 Y101.791 E53.74719
G1 X59.898 Y101.791 E53.77918
G1 X60.462 Y101.651 E53.81107
G1 X60.978 Y101.381 E53.84303
G1 X61.414 Y100.995 E53.87499
G1 X61.744 Y100.516 E53.90691
G1 X61.95 Y99.971 E53.93889
G1 X62.021 Y99.393 E53.97085
G1 X61.95 Y98.815 E54.0028
G1 X61.744 Y98.271 E54.03473
G1 X61.414 Y97.792 E54.06665
G1 X60.978 Y97.406 E54.09861
G1 X60.462 Y97.136 E54.13057
G1 X59.898 Y96.996 E54.16246
G1 X59.315 Y96.996 E54.19445
G1 X58.749 Y97.136 E54.22645
G1 X58.234 Y97.406 E54.25836
G1 X57.798 Y97.792 E54.29032
G1 X57.467 Y98.271 E54.32227
G1 F2700 E49.32227
G1 F600 Z0.5
G0 F6000 X57.467 Y119.484 Z0.5
G1 F600 Z0.3
G1 F2700 E54.32227
G1 F600 X57.262 Y120.029 E54.35423
G1 X57.191 Y120.607 E54.38619
G1 X57.262 Y121.184 E54.41809
G1 X57.467 Y121.729 E54.45004
G1 X57.798 Y122.208 E54.482
G1 X58.234 Y122.594 E54.51395
G1 X58.749 Y122.864 E54.54587
G1 X59.315 Y123.004 E54.57786
G1 X59.898 Y123.004 E54.60986
G1 X60.462 Y122.864 E54.64175
G1 X60.978 Y122.594 E54.67371
G1 X61.414 Y122.208 E54.70567
G1 X61.744 Y121.729 E54.73759
G1 X61.95 Y121.185 E54.76951
G1 X62.021 Y120.607 E54.80147
G1 X61.95 Y120.029 E54.83343
G1 X61.744 Y119.484 E54.8654
G1 X61.414 Y119.005 E54.89732
G1 X60.978 Y118.619 E54.92928
G1 X60.462 Y118.349 E54.96124
G1 X59.898 Y118.209 E54.99313
G1 X59.315 Y118.209 E55.02513
G1 X58.749 Y118.349 E55.05713
G1 X58.234 Y118.619 E55.08904
G1 X57.798 Y119.005 E55.12099
G1 X57.467 Y119.484 E55.15295
G1 F2700 E50.15295
G1 F600 Z0.5
G0 F6000 X41.04 Y111.821 Z0.5
G1 F600 Z0.3
G1 F2700 E55.15295
G1 F600 X41.086 Y111.946 E55.16026
G1 X41.643 Y113.542 E55.25302
G1 X42.616 Y115.09 E55.35337
G1 X43.909 Y116.383 E55.45372
G1 X45.457 Y117.355 E55.55403
G1 X47.182 Y117.96 E55.65435
G1 X48.999 Y118.164 E55.75469
G1 X50.82 Y117.959 E55.85526
G1 X50.951 Y117.911 E55.86291
G1 X52.541 Y117.356 E55.95533
G1 X54.089 Y116.383 E56.05568
G1 X55.382 Y115.09 E56.15603
G1 X56.354 Y113.542 E56.25634
G1 X56.959 Y111.817 E56.35666
G1 X57.163 Y110 E56.457
G1 X56.958 Y108.179 E56.55757
G1 X56.91 Y108.048 E56.56522
G1 X56.355 Y106.458 E56.65764
G1 X55.382 Y104.91 E56.75798
G1 X54.089 Y103.617 E56.85834
G1 X52.541 Y102.645 E56.95865
G1 X50.816 Y102.04 E57.05897
G1 X48.999 Y101.836 E57.15931
G1 X47.181 Y102.04 E57.25971
G1 X45.457 Y102.645 E57.35997
G1 X43.909 Y103.617 E57.46029
G1 X42.616 Y104.91 E57.56064
G1 X41.644 Y106.458 E57.66095
G1 X41.039 Y108.183 E57.76127
G1 X40.835 Y110 E57.86161
G1 X41.04 Y111.821 E57.96218
G1 F2700 E52.96218
G1 F600 Z0.5
G0 F6000 X35.977 Y120.607 Z0.5
G1 F600 Z0.3
G1 F2700 E57.96218
G1 F600 X36.048 Y121.185 E57.99414
G1 X36.255 Y121.729 E58.02608
G1 X36.585 Y122.208 E58.058
G1 X37.02 Y122.594 E58.08992
G1 X37.536 Y122.864 E58.12188
G1 X38.102 Y123.004 E58.15387
G1 X38.683 Y123.004 E58.18576
G1 X39.249 Y122.864 E58.21776
G1 X39.765 Y122.594 E58.24972
G1 X40.2 Y122.208 E58.28163
G1 X40.53 Y121.729 E58.31355
G1 X40.737 Y121.184 E58.34555
G1 X40.807 Y120.607 E58.37745
G1 X40.737 Y120.029 E58.4094
G1 X40.53 Y119.484 E58.44139
G1 X40.2 Y119.005 E58.47331
G1 X39.765 Y118.619 E58.50523
G1 X39.249 Y118.349 E58.53719
G1 X38.683 Y118.209 E58.56919
G1 X38.102 Y118.209 E58.60107
G1 X37.536 Y118.349 E58.63307
G1 X37.02 Y118.619 E58.66503
G1 X36.585 Y119.005 E58.69695
