;FLAVOR:Marlin
;TIME:1737
;Filament used: 1.02782m
;Layer height: 0.2
;MINX:103.735
;MINY:82.22
;MINZ:0.3
;MAXX:116.257
;MAXY:137.999
;MAXZ:12.9
;Generated with Cura_SteamEngine 4.2.1
M140 S50
M105
M190 S50
M104 S205
M105
M109 S205
M82 ;absolute extrusion mode
M201 X500.00 Y500.00 Z100.00 E5000.00 ;Setup machine max acceleration
M203 X500.00 Y500.00 Z10.00 E50.00 ;Setup machine max feedrate
M204 P500.00 R1000.00 T500.00 ;Setup Print/Retract/Travel acceleration
M205 X8.00 Y8.00 Z0.40 E5.00 ;Setup Jerk
M220 S100 ;Reset Feedrate
M221 S100 ;Reset Flowrate

G28 ;Home

G92 E0 ;Reset Extruder
G1 Z2.0 F3000 ;Move Z Axis up
G1 X10.1 Y20 Z0.28 F5000.0 ;Move to start position
G1 X10.1 Y200.0 Z0.28 F1500.0 E15 ;Draw the first line
G1 X10.4 Y200.0 Z0.28 F5000.0 ;Move to side a little
G1 X10.4 Y20 Z0.28 F1500.0 E30 ;Draw the second line
G92 E0 ;Reset Extruder
G1 Z2.0 F3000 ;Move Z Axis up

G92 E0
G92 E0
G1 F2700 E-5
;LAYER_COUNT:64
;LAYER:0
M107
G0 F6000 X107.095 Y82.22 Z0.3
;TYPE:SUPPORT
G1 F2700 E0
G1 F1200 X107.53 Y82.22 E0.02387
G1 X107.591 Y87.967 E0.33928
G1 X107.616 Y87.993 E0.34126
G1 X107.622 Y88.339 E0.36025
G1 X107.696 Y88.414 E0.36603
G1 X107.696 Y88.418 E0.36625
G1 X107.101 Y87.791 E0.41369
G1 X107.101 Y82.749 E0.69039
G1 X107.095 Y82.22 E0.71942
G0 F6000 X107.189 Y83.6
G1 F1200 X107.458 Y83.6 E0.73419
G1 F2700 E-4.26581
G1 F600 Z0.5
G0 F6000 X107.481 Y85.8 Z0.5
G1 F600 Z0.3
G1 F2700 E0.73419
G1 F1200 X107.189 Y85.8 E0.75021
G1 F2700 E-4.24979
G1 F600 Z0.5
G0 F6000 X108.208 Y89.258 Z0.5
G1 F600 Z0.3
G1 F2700 E0.75021
G1 F1200 X111.822 Y89.546 E0.94917
G1 X112.286 Y89.116 E0.98389
G1 X112.286 Y88.475 E1.01907
G1 X112.438 Y88.318 E1.03106
G1 X112.437 Y82.22 E1.36571
G1 X113.189 Y82.22 E1.40698
G1 X113.195 Y85.761 E1.60131
G1 X113.537 Y86.103 E1.62785
G1 X113.539 Y87.791 E1.72049
G1 X112.739 Y88.645 E1.78471
G1 X112.143 Y89.801 E1.85608
G1 X111.996 Y90.388 E1.88929
G1 X111.985 Y91.417 E1.94577
G1 X111.984 Y137.779 E4.49008
G1 X107.987 Y137.78 E4.70943
G1 X107.985 Y136.808 E4.76277
G1 X107.986 Y90.546 E7.3016
G1 X107.876 Y89.888 E7.33821
G1 X107.836 Y89.82 E7.34254
G1 X108.148 Y89.647 E7.36211
G1 X108.208 Y89.258 E7.38372
G0 F6000 X108.581 Y89.729
G1 F1200 X111.647 Y89.974 E7.55251
G1 X111.557 Y90.331 E7.57272
G1 X111.545 Y91.415 E7.63221
G1 X111.544 Y137.339 E10.15248
G1 X108.426 Y137.34 E10.3236
G1 X108.425 Y136.807 E10.35285
G1 X108.426 Y90.509 E12.89364
G1 X108.348 Y90.039 E12.91979
G1 X108.55 Y89.927 E12.93247
G1 X108.581 Y89.729 E12.94346
G1 F2700 E7.94346
G1 F600 Z0.5
G0 F6000 X112.878 Y86.066 Z0.5
G1 F600 Z0.3
G1 F2700 E12.94346
G1 F1200 X113.097 Y86.285 E12.96046
G1 X113.099 Y87.617 E13.03356
G1 X112.878 Y87.853 E13.0513
G1 X112.878 Y86.066 E13.14937
G1 F2700 E8.14937
G1 F600 Z0.5
G0 F6000 X111.498 Y90.2 Z0.5
G1 F600 Z0.3
G1 F2700 E13.14937
G1 F1200 X108.463 Y90.2 E13.31593
G1 F2700 E8.31593
G1 F600 Z0.5
G0 F6000 X110 Y89.931 Z0.5
G1 F600 Z0.3
G1 F2700 E13.31593
G1 F1200 X110 Y137.252 E15.91287
G1 F2700 E10.91287
G1 F600 Z0.5
G0 F6000 X111.455 Y136.4 Z0.5
G1 F600 Z0.3
G1 F2700 E15.91287
G1 F1200 X108.513 Y136.4 E16.07433
G1 F2700 E11.07433
G1 F600 Z0.5
G0 F6000 X108.513 Y134.2 Z0.5
G1 F600 Z0.3
G1 F2700 E16.07433
G1 F1200 X111.455 Y134.2 E16.23578
G1 F2700 E11.23578
G1 F600 Z0.5
G0 F6000 X111.455 Y132 Z0.5
G1 F600 Z0.3
G1 F2700 E16.23578
G1 F1200 X108.513 Y132 E16.39724
G1 F2700 E11.39724
G1 F600 Z0.5
G0 F6000 X108.513 Y129.8 Z0.5
G1 F600 Z0.3
G1 F2700 E16.39724
G1 F1200 X111.455 Y129.8 E16.55869
G1 F2700 E11.55869
G1 F600 Z0.5
G0 F6000 X111.455 Y127.6 Z0.5
G1 F600 Z0.3
G1 F2700 E16.55869
G1 F1200 X108.513 Y127.6 E16.72014
G1 F2700 E11.72014
G1 F600 Z0.5
G0 F6000 X108.513 Y125.4 Z0.5
G1 F600 Z0.3
G1 F2700 E16.72014
G1 F1200 X111.455 Y125.4 E16.8816
G1 F2700 E11.8816
G1 F600 Z0.5
G0 F6000 X111.455 Y123.2 Z0.5
G1 F600 Z0.3
G1 F2700 E16.8816
G1 F1200 X108.513 Y123.2 E17.04305
G1 F2700 E12.04305
G1 F600 Z0.5
G0 F6000 X108.513 Y121 Z0.5
G1 F600 Z0.3
G1 F2700 E17.04305
G1 F1200 X111.455 Y121 E17.20451
G1 F2700 E12.20451
G1 F600 Z0.5
G0 F6000 X111.456 Y118.8 Z0.5
G1 F600 Z0.3
G1 F2700 E17.20451
G1 F1200 X108.514 Y118.8 E17.36596
G1 F2700 E12.36596
G1 F600 Z0.5
G0 F6000 X108.514 Y116.6 Z0.5
G1 F600 Z0.3
G1 F2700 E17.36596
G1 F1200 X111.456 Y116.6 E17.52742
G1 F2700 E12.52742
G1 F600 Z0.5
G0 F6000 X111.456 Y114.4 Z0.5
G1 F600 Z0.3
G1 F2700 E17.52742
G1 F1200 X108.514 Y114.4 E17.68887
G1 F2700 E12.68887
G1 F600 Z0.5
G0 F6000 X108.514 Y112.2 Z0.5
G1 F600 Z0.3
G1 F2700 E17.68887
G1 F1200 X111.456 Y112.2 E17.85033
G1 F2700 E12.85033
G1 F600 Z0.5
G0 F6000 X111.456 Y110 Z0.5
G1 F600 Z0.3
G1 F2700 E17.85033
G1 F1200 X108.514 Y110 E18.01178
G1 F2700 E13.01178
G1 F600 Z0.5
G0 F6000 X108.514 Y107.8 Z0.5
G1 F600 Z0.3
G1 F2700 E18.01178
G1 F1200 X111.456 Y107.8 E18.17324
G1 F2700 E13.17324
G1 F600 Z0.5
G0 F6000 X111.456 Y105.6 Z0.5
G1 F600 Z0.3
G1 F2700 E18.17324
G1 F1200 X108.514 Y105.6 E18.33469
G1 F2700 E13.33469
G1 F600 Z0.5
G0 F6000 X108.514 Y103.4 Z0.5
G1 F600 Z0.3
G1 F2700 E18.33469
G1 F1200 X111.456 Y103.4 E18.49615
G1 F2700 E13.49615
G1 F600 Z0.5
G0 F6000 X111.456 Y101.2 Z0.5
G1 F600 Z0.3
G1 F2700 E18.49615
G1 F1200 X108.514 Y101.2 E18.6576
G1 F2700 E13.6576
G1 F600 Z0.5
G0 F6000 X108.514 Y99 Z0.5
G1 F600 Z0.3
G1 F2700 E18.6576
G1 F1200 X111.456 Y99 E18.81906
G1 F2700 E13.81906
G1 F600 Z0.5
G0 F6000 X111.456 Y96.8 Z0.5
G1 F600 Z0.3
G1 F2700 E18.81906
G1 F1200 X108.514 Y96.8 E18.98051
G1 F2700 E13.98051
G1 F600 Z0.5
G0 F6000 X108.514 Y94.6 Z0.5
G1 F600 Z0.3
G1 F2700 E18.98051
G1 F1200 X111.456 Y94.6 E19.14197
G1 F2700 E14.14197
G1 F600 Z0.5
G0 F6000 X111.456 Y92.4 Z0.5
G1 F600 Z0.3
G1 F2700 E19.14197
G1 F1200 X108.514 Y92.4 E19.30342
G1 F2700 E14.30342
G1 F600 Z0.5
;MESH:PendulumShaft.stl
G0 F6000 X109.797 Y86.854 Z0.5
;TYPE:WALL-INNER
G1 F600 Z0.3
G1 F2700 E19.30342
G1 F1200 X109.784 Y86.124 E19.34349
G1 X109.783 Y83.32 E19.49737
G1 X109.783 Y83.1 E19.50944
G1 X110.003 Y83.1 E19.51725
G1 X110.237 Y83.1 E19.53009
G1 X110.238 Y86.857 E19.73627
G1 X110.238 Y86.914 E19.7394
G1 X109.798 Y86.911 E19.76355
G1 X109.797 Y86.854 E19.76667
G0 F6000 X110.28 Y87.354
G1 F1200 X110.259 Y87.354 E19.76783
G1 X109.365 Y87.349 E19.81689
G1 X109.344 Y86.124 E19.88413
G1 X109.343 Y82.88 E20.06215
G1 X109.343 Y82.66 E20.07423
G1 X109.563 Y82.66 E20.08203
G1 X110.677 Y82.66 E20.14317
G1 X110.678 Y87.327 E20.39929
G1 X110.678 Y87.348 E20.40044
G1 X110.28 Y87.354 E20.42229
G0 F6000 X110.285 Y87.794
;TYPE:WALL-OUTER
G1 F1200 X109.078 Y87.788 E20.48853
G1 X108.932 Y87.785 E20.49654
G1 X108.904 Y86.124 E20.58771
G1 X108.903 Y82.44 E20.78988
G1 X108.903 Y82.22 E20.80196
G1 X109.123 Y82.22 E20.80976
G1 X111.117 Y82.22 E20.91919
G1 X111.118 Y87.781 E21.22438
G1 X110.285 Y87.794 E21.2701
G1 F2700 E16.2701
G1 F600 Z0.5
;MESH:NONMESH
G0 F6000 X108.208 Y89.258 Z0.5
;TIME_ELAPSED:37.009467
;LAYER:1
M140 S50
M106 S127.5
;TYPE:SUPPORT
G1 F600 Z0.5
G1 F2700 E21.2701
G1 F1350 X111.822 Y89.546 E21.40274
G1 X112.286 Y89.116 E21.42588
G1 X112.286 Y89.095 E21.42665
G1 X112.511 Y89.087 E21.43489
G1 X112.143 Y89.801 E21.46428
G1 X111.996 Y90.388 E21.48642
G1 X111.985 Y91.417 E21.52406
G1 X111.984 Y137.779 E23.22027
G1 X107.987 Y137.78 E23.36651
G1 X107.985 Y136.808 E23.40207
G1 X107.986 Y90.546 E25.09462
G1 X107.876 Y89.888 E25.11902
G1 X107.836 Y89.82 E25.12191
G1 X108.148 Y89.647 E25.13496
G1 X108.208 Y89.258 E25.14936
G1 F2700 E20.14936
G1 F600 Z0.7
G0 F7500 X113.266 Y85.832 Z0.7
G1 F600 Z0.5
G1 F2700 E25.14936
G1 F1350 X113.537 Y86.103 E25.16339
G1 X113.539 Y87.791 E25.22514
G1 X113.266 Y88.082 E25.23974
G1 X113.266 Y85.832 E25.32206
G1 F2700 E20.32206
G1 F600 Z0.7
G0 F7500 X110 Y89.71 Z0.7
G1 F600 Z0.5
G1 F2700 E25.32206
G1 F1350 X111.812 Y89.854 E25.38856
G1 X111.688 Y90.349 E25.40723
G1 X111.677 Y91.415 E25.44624
G1 X111.676 Y137.471 E27.13125
G1 X110 Y137.472 E27.19257
G1 X108.295 Y137.472 E27.25494
G1 X108.293 Y136.808 E27.27924
G1 X108.294 Y90.521 E28.9727
G1 X108.202 Y89.969 E28.99318
G1 X108.429 Y89.843 E29.00267
G1 X108.468 Y89.587 E29.01215
G1 X110 Y89.71 E29.06838
G1 X110 Y137.472 E30.81581
G1 F2700 E25.81581
G1 F600 Z0.7
G0 F7500 X108.468 Y89.587 Z0.7
G1 F600 Z0.5
G1 F2700 E30.81581
G1 F1350 X108.468 Y89.587
G1 F2700 E25.81581
G1 F600 Z0.7
;MESH:PendulumShaft.stl
G0 F7500 X108.862 Y83.322 Z0.7
;TYPE:WALL-INNER
G1 F600 Z0.5
G1 F2700 E30.81581
G1 F1350 X108.861 Y83.321 E30.81586
G1 X108.86 Y83.1 E30.82394
G1 X109.081 Y83.1 E30.82917
G1 X109.082 Y83.1 E30.8292
G1 X111.065 Y83.1 E30.90175
G1 X111.066 Y86.928 E31.0418
G1 X110.262 Y86.942 E31.07122
G1 X109.139 Y86.936 E31.11231
G1 X108.9 Y86.93 E31.12106
G1 X108.862 Y83.322 E31.25307
G0 F7500 X108.417 Y82.882
G1 F1350 X108.416 Y82.881 E31.25312
G1 X108.415 Y82.66 E31.26121
G1 X108.636 Y82.66 E31.26643
G1 X108.637 Y82.66 E31.26646
G1 X111.505 Y82.66 E31.37139
G1 X111.506 Y87.361 E31.54339
G1 X110.267 Y87.382 E31.58872
G1 X109.127 Y87.376 E31.63043
G1 X108.465 Y87.358 E31.65466
G1 X108.417 Y82.882 E31.81843
G0 F7500 X107.972 Y82.442
;TYPE:WALL-OUTER
G1 F1350 X107.971 Y82.441 E31.81848
G1 X107.97 Y82.22 E31.82657
G1 X108.191 Y82.22 E31.83179
G1 X108.192 Y82.22 E31.83183
G1 X111.945 Y82.22 E31.96913
G1 X111.946 Y87.785 E32.17274
G1 X111.456 Y87.803 E32.19067
G1 X110.272 Y87.822 E32.234
G1 X109.115 Y87.816 E32.27633
G1 X108.029 Y87.787 E32.31608
G1 X108.028 Y87.679 E32.32003
G1 X107.972 Y82.442 E32.51164
G1 F2700 E27.51164
G1 F600 Z0.7
G0 F7500 X109.294 Y83.53 Z0.7
;TYPE:SKIN
G1 F600 Z0.5
G1 F2700 E32.51164
G1 F1350 X110.635 Y83.53 E32.5607
G1 X110.636 Y86.506 E32.66958
G1 X110.256 Y86.512 E32.68349
G1 X109.326 Y86.507 E32.71751
G1 X109.294 Y83.53 E32.82644
G0 F7500 X109.475 Y84.045
G1 F1350 X109.815 Y83.705 E32.84403
G0 F7500 X110.437 Y83.705
G1 F1350 X109.482 Y84.661 E32.89347
G0 F7500 X109.488 Y85.277
G1 F1350 X110.458 Y84.306 E32.94368
G0 F7500 X110.458 Y84.929
G1 F1350 X109.495 Y85.892 E32.99351
G0 F7500 X109.676 Y86.333
G1 F1350 X110.458 Y85.551 E33.03397
G0 F7500 X110.458 Y86.173
G1 F1350 X110.296 Y86.335 E33.04235
G1 F2700 E28.04235
G1 F600 Z0.7
;MESH:NONMESH
G0 F7500 X107.836 Y89.82 Z0.7
;TIME_ELAPSED:55.913405
;LAYER:2
M106 S255
;TYPE:SUPPORT
G1 F600 Z0.7
G1 F2700 E33.04235
G1 F1500 X108.129 Y89.658 E33.0546
G1 X108.131 Y89.653 E33.0548
G1 X108.147 Y89.644 E33.05547
G1 X108.416 Y89.289 E33.07176
G1 X108.602 Y89.363 E33.07909
G1 X108.775 Y89.303 E33.08579
G1 X111.822 Y89.546 E33.19762
G1 X112.286 Y89.116 E33.22076
G1 X112.5 Y89.107 E33.2286
G1 X112.142 Y89.803 E33.25723
G1 X111.996 Y90.388 E33.27929
G1 X111.985 Y91.417 E33.31694
G1 X111.984 Y137.779 E35.01315
G1 X107.987 Y137.78 E35.15938
G1 X107.985 Y136.808 E35.19495
G1 X107.986 Y90.54 E36.88771
G1 X107.876 Y89.888 E36.91191
G1 X107.836 Y89.82 E36.91479
G0 F9000 X108.816 Y89.615
G1 F1500 X108.595 Y89.692 E36.92335
G1 X108.519 Y89.662 E36.92634
G1 X108.392 Y89.83 E36.93405
G1 X108.374 Y89.875 E36.93582
G1 X108.202 Y89.97 E36.94301
G1 X108.294 Y90.514 E36.9632
G1 X108.293 Y136.808 E38.65692
G1 X108.295 Y137.472 E38.68121
G1 X110 Y137.472 E38.74359
G1 X110 Y89.71 E40.49102
G1 X108.816 Y89.615 E40.53447
G0 F9000 X110 Y89.71
G1 F1500 X111.812 Y89.854 E40.60098
G1 X111.688 Y90.349 E40.61965
G1 X111.677 Y91.415 E40.65865
G1 X111.676 Y137.471 E42.34366
G1 X110 Y137.472 E42.40498
G1 F2700 E37.40498
G1 F600 Z0.9
;MESH:PendulumShaft.stl
G0 F9000 X108.424 Y83.322 Z0.9
;TYPE:WALL-INNER
G1 F600 Z0.7
G1 F2700 E42.40498
G1 F1500 X108.423 Y83.321 E42.40503
G1 X108.422 Y83.1 E42.41312
G1 X108.643 Y83.1 E42.41834
G1 X108.644 Y83.1 E42.41838
G1 X111.62 Y83.1 E42.52726
G1 X111.621 Y86.938 E42.66767
G1 X110.264 Y86.97 E42.71733
G1 X109.879 Y86.963 E42.73142
G1 X109.009 Y86.956 E42.76325
G1 X108.444 Y86.939 E42.78393
G1 X108.444 Y85.222 E42.84675
G1 X108.424 Y83.322 E42.91627
G0 F9000 X107.979 Y82.882
G1 F1500 X107.978 Y82.881 E42.91632
G1 X107.977 Y82.66 E42.92441
G1 X108.198 Y82.66 E42.92963
G1 X108.199 Y82.66 E42.92967
G1 X112.06 Y82.66 E43.07093
G1 X112.061 Y87.362 E43.24295
G1 X111.391 Y87.387 E43.26748
G1 X110.265 Y87.41 E43.30869
G1 X109.873 Y87.403 E43.32303
G1 X108.996 Y87.396 E43.35512
G1 X108.004 Y87.367 E43.39143
G1 X108.004 Y85.224 E43.46983
G1 X107.979 Y82.882 E43.55552
G0 F9000 X107.534 Y82.442
;TYPE:WALL-OUTER
G1 F1500 X107.533 Y82.441 E43.55557
G1 X107.532 Y82.22 E43.56366
G1 X107.753 Y82.22 E43.56888
G1 X107.754 Y82.22 E43.56892
G1 X112.5 Y82.22 E43.74256
G1 X112.501 Y87.786 E43.94619
G1 X111.407 Y87.827 E43.98625
G1 X110.266 Y87.85 E44.028
G1 X109.867 Y87.843 E44.0426
G1 X108.983 Y87.836 E44.07494
G1 X107.885 Y87.804 E44.11513
G1 X107.564 Y87.789 E44.12689
G1 X107.564 Y85.226 E44.22066
G1 X107.534 Y82.442 E44.32252
G1 F2700 E39.32252
G1 F600 Z0.9
G0 F9000 X108.856 Y83.53 Z0.9
;TYPE:SKIN
G1 F600 Z0.7
G1 F2700 E44.32252
G1 F1500 X111.19 Y83.53 E44.40791
G1 X111.191 Y86.518 E44.51723
G1 X110.262 Y86.54 E44.55123
G1 X109.885 Y86.533 E44.56503
G1 X108.874 Y86.521 E44.60202
G1 X108.874 Y85.22 E44.64962
G1 X108.856 Y83.53 E44.71145
G1 F2700 E39.71145
G1 F600 Z0.9
G0 F9000 X111.013 Y84.256 Z0.9
G1 F600 Z0.7
G1 F2700 E44.71145
G1 F1500 X110.462 Y83.705 E44.73996
G0 F9000 X109.84 Y83.705
G1 F1500 X111.013 Y84.878 E44.80065
G0 F9000 X111.014 Y85.501
G1 F1500 X109.218 Y83.705 E44.89358
G0 F9000 X109.037 Y84.147
G1 F1500 X111.014 Y86.124 E44.99587
G0 F9000 X110.622 Y86.354
G1 F1500 X109.044 Y84.776 E45.07752
G0 F9000 X109.049 Y85.403
G1 F1500 X110.004 Y86.358 E45.12693
G0 F9000 X109.373 Y86.35
G1 F1500 X109.049 Y86.025 E45.14372
G1 F2700 E40.14372
G1 F600 Z0.9
;MESH:NONMESH
G0 F9000 X107.836 Y89.82 Z0.9
;TIME_ELAPSED:73.049060
;LAYER:3
;TYPE:SUPPORT
G1 F600 Z0.9
G1 F2700 E45.14372
G1 F1500 X108.129 Y89.658 E45.15597
G1 X108.166 Y89.619 E45.15793
G1 X108.417 Y89.29 E45.17307
G1 X108.602 Y89.364 E45.18036
G1 X108.777 Y89.303 E45.18714
G1 X111.822 Y89.546 E45.2989
G1 X112.262 Y89.138 E45.32086
G1 X112.489 Y89.127 E45.32917
G1 X112.363 Y89.373 E45.33928
G1 X112.14 Y89.806 E45.3571
G1 X112.106 Y89.947 E45.36241
G1 X111.996 Y90.388 E45.37904
G1 X111.985 Y91.417 E45.41669
G1 X111.984 Y137.779 E47.11289
G1 X107.987 Y137.78 E47.25913
G1 X107.985 Y136.808 E47.29469
G1 X107.986 Y90.535 E48.98764
G1 X107.876 Y89.888 E49.01165
G1 X107.836 Y89.82 E49.01454
G0 F9000 X108.818 Y89.615
G1 F1500 X108.595 Y89.693 E49.02318
G1 X108.52 Y89.663 E49.02614
G1 X108.401 Y89.819 E49.03332
G1 X108.319 Y89.904 E49.03764
G1 X108.202 Y89.969 E49.04253
G1 X108.294 Y90.508 E49.06254
G1 X108.293 Y136.808 E50.75648
G1 X108.295 Y137.472 E50.78077
G1 X110 Y137.472 E50.84315
G1 X110 Y89.71 E52.59058
G1 X108.818 Y89.615 E52.63396
G0 F9000 X110 Y89.71
G1 F1500 X111.811 Y89.854 E52.70043
G1 X111.806 Y89.874 E52.70118
G1 X111.688 Y90.349 E52.71909
G1 X111.677 Y91.415 E52.75809
G1 X111.676 Y137.471 E54.44311
G1 X110 Y137.472 E54.50442
G1 F2700 E49.50442
G1 F600 Z1.1
;MESH:PendulumShaft.stl
G0 F9000 X108.565 Y86.965 Z1.1
;TYPE:WALL-INNER
G1 F600 Z0.9
G1 F2700 E54.50442
G1 F1500 X107.981 Y86.949 E54.5258
G1 X107.98 Y83.32 E54.65857
G1 X107.98 Y83.1 E54.66662
G1 X108.2 Y83.1 E54.67182
G1 X111.966 Y83.1 E54.80961
G1 X111.967 Y86.951 E54.9505
G1 X111.928 Y86.953 E54.95193
G1 X111.507 Y86.965 E54.96734
G1 X111.201 Y86.992 E54.97858
G1 X110.634 Y87.028 E54.99936
G1 X110.24 Y87.041 E55.01378
G1 X109.217 Y87.023 E55.05122
G1 X108.565 Y86.965 E55.07517
G0 F9000 X108.539 Y87.404
G1 F1500 X107.913 Y87.387 E55.09808
G1 X107.541 Y87.37 E55.1117
G1 X107.54 Y82.88 E55.27597
G1 X107.54 Y82.66 E55.28402
G1 X107.76 Y82.66 E55.28923
G1 X112.406 Y82.66 E55.45921
G1 X112.407 Y87.369 E55.63149
G1 X111.941 Y87.392 E55.64856
G1 X111.533 Y87.404 E55.66349
G1 X111.229 Y87.431 E55.67466
G1 X110.648 Y87.468 E55.69596
G1 X110.246 Y87.481 E55.71068
G1 X109.198 Y87.463 E55.74902
G1 X108.539 Y87.404 E55.77323
G1 F2700 E50.77323
G1 F600 Z1.1
G0 F9000 X107.097 Y82.442 Z1.1
;TYPE:WALL-OUTER
G1 F600 Z0.9
G1 F2700 E55.77323
G1 F1500 X107.096 Y82.441 E55.77328
G1 X107.095 Y82.22 E55.78137
G1 X107.316 Y82.22 E55.78659
G1 X107.317 Y82.22 E55.78663
G1 X112.846 Y82.22 E55.98891
G1 X112.847 Y87.788 E56.19262
G1 X111.954 Y87.831 E56.22533
G1 X111.559 Y87.843 E56.23979
G1 X111.257 Y87.87 E56.25088
G1 X110.662 Y87.908 E56.2727
