;FLAVOR:Marlin
;TIME:16574
;Filament used: 13.1445m
;Layer height: 0.2
;MINX:56.86
;MINY:58.36
;MINZ:0.3
;MAXX:163.14
;MAXY:161.64
;MAXZ:52.1
;Generated with Cura_SteamEngine 4.2.1
M140 S50
M105
M190 S50
M104 S205
M105
M109 S205
M82 ;absolute extrusion mode
M201 X500.00 Y500.00 Z100.00 E5000.00 ;Setup machine max acceleration
M203 X500.00 Y500.00 Z10.00 E50.00 ;Setup machine max feedrate
M204 P500.00 R1000.00 T500.00 ;Setup Print/Retract/Travel acceleration
M205 X8.00 Y8.00 Z0.40 E5.00 ;Setup Jerk
M220 S100 ;Reset Feedrate
M221 S100 ;Reset Flowrate

G28 ;Home

G92 E0 ;Reset Extruder
G1 Z2.0 F3000 ;Move Z Axis up
G1 X10.1 Y20 Z0.28 F5000.0 ;Move to start position
G1 X10.1 Y200.0 Z0.28 F1500.0 E15 ;Draw the first line
G1 X10.4 Y200.0 Z0.28 F5000.0 ;Move to side a little
G1 X10.4 Y20 Z0.28 F1500.0 E30 ;Draw the second line
G92 E0 ;Reset Extruder
G1 Z2.0 F3000 ;Move Z Axis up

G92 E0
G92 E0
G1 F2700 E-5
;LAYER_COUNT:259
;LAYER:0
M107
G0 F6000 X73.743 Y61.422 Z0.3
;TYPE:SKIRT
G1 F2700 E0
G1 F600 X74.244 Y60.873 E0.04079
G1 X74.373 Y60.744 E0.0508
G1 X74.971 Y60.203 E0.09505
G1 X75.62 Y59.723 E0.13935
G1 X76.313 Y59.31 E0.18363
G1 X77.043 Y58.968 E0.22787
G1 X77.804 Y58.699 E0.27216
G1 X78.588 Y58.507 E0.31646
G1 X79.386 Y58.394 E0.36069
G1 X80.129 Y58.36 E0.40151
G1 X139.871 Y58.36 E3.6801
G1 X140.677 Y58.4 E3.72439
G1 X141.475 Y58.52 E3.76868
G1 X142.257 Y58.717 E3.81293
G1 X143.015 Y58.992 E3.85718
G1 X143.743 Y59.34 E3.90147
G1 X144.433 Y59.758 E3.94574
G1 X145.078 Y60.243 E3.99003
G1 X145.671 Y60.789 E4.03426
G1 X146.208 Y61.391 E4.07853
G1 X146.683 Y62.044 E4.12285
G1 X147.09 Y62.74 E4.1671
G1 X147.427 Y63.473 E4.21137
G1 X147.69 Y64.236 E4.25566
G1 X147.875 Y65.021 E4.29992
G1 X147.983 Y65.82 E4.34417
G1 X148.011 Y66.476 E4.3802
G1 X148.116 Y101.36 E6.29462
G1 X154.871 Y101.36 E6.66533
G1 X155.677 Y101.4 E6.70961
G1 X156.475 Y101.52 E6.7539
G1 X157.257 Y101.717 E6.79816
G1 X158.015 Y101.992 E6.84241
G1 X158.743 Y102.34 E6.88669
G1 X159.433 Y102.758 E6.93096
G1 X160.078 Y103.243 E6.97525
G1 X160.627 Y103.744 E7.01604
G1 X160.756 Y103.873 E7.02605
G1 X161.297 Y104.471 E7.07031
G1 X161.777 Y105.12 E7.1146
G1 X162.19 Y105.813 E7.15888
G1 X162.532 Y106.543 E7.20312
G1 X162.801 Y107.304 E7.24741
G1 X162.993 Y108.088 E7.29171
G1 X163.106 Y108.886 E7.33594
G1 X163.14 Y109.629 E7.37676
G1 X163.14 Y153.371 E9.77729
G1 X163.1 Y154.177 E9.82157
G1 X162.98 Y154.975 E9.86586
G1 X162.783 Y155.757 E9.91012
G1 X162.508 Y156.515 E9.95437
G1 X162.16 Y157.243 E9.99865
G1 X161.742 Y157.933 E10.04292
G1 X161.257 Y158.578 E10.08721
G1 X160.756 Y159.127 E10.128
G1 X160.627 Y159.256 E10.13801
G1 X160.029 Y159.797 E10.18226
G1 X159.38 Y160.277 E10.22656
G1 X158.687 Y160.69 E10.27084
G1 X157.957 Y161.032 E10.31508
G1 X157.196 Y161.301 E10.35937
G1 X156.412 Y161.493 E10.40367
G1 X155.614 Y161.606 E10.4479
G1 X154.871 Y161.64 E10.48872
G1 X65.129 Y161.64 E15.41369
G1 X64.323 Y161.6 E15.45798
G1 X63.525 Y161.48 E15.50226
G1 X62.743 Y161.283 E15.54652
G1 X61.985 Y161.008 E15.59077
G1 X61.257 Y160.66 E15.63505
G1 X60.567 Y160.242 E15.67933
G1 X59.922 Y159.757 E15.72361
G1 X59.373 Y159.256 E15.7644
G1 X59.244 Y159.127 E15.77441
G1 X58.703 Y158.529 E15.81867
G1 X58.223 Y157.88 E15.86297
G1 X57.81 Y157.187 E15.90724
G1 X57.468 Y156.457 E15.95148
G1 X57.199 Y155.696 E15.99578
G1 X57.007 Y154.912 E16.04007
G1 X56.894 Y154.114 E16.0843
G1 X56.86 Y153.371 E16.12512
G1 X56.86 Y109.629 E18.52565
G1 X56.9 Y108.823 E18.56993
G1 X57.02 Y108.025 E18.61422
G1 X57.217 Y107.243 E18.65848
G1 X57.492 Y106.485 E18.70273
G1 X57.84 Y105.757 E18.74701
G1 X58.258 Y105.067 E18.79128
G1 X58.743 Y104.422 E18.83557
G1 X59.244 Y103.873 E18.87636
G1 X59.373 Y103.744 E18.88637
G1 X59.971 Y103.203 E18.93063
G1 X60.62 Y102.723 E18.97493
G1 X61.313 Y102.31 E19.0192
G1 X62.043 Y101.968 E19.06344
G1 X62.804 Y101.699 E19.10773
G1 X63.588 Y101.507 E19.15203
G1 X64.386 Y101.394 E19.19626
G1 X65.129 Y101.36 E19.23708
G1 X71.86 Y101.36 E19.60647
G1 X71.86 Y66.629 E21.51248
G1 X71.9 Y65.823 E21.55677
G1 X72.02 Y65.025 E21.60106
G1 X72.217 Y64.243 E21.64531
G1 X72.492 Y63.485 E21.68956
G1 X72.84 Y62.757 E21.73385
G1 X73.258 Y62.067 E21.77812
G1 X73.743 Y61.422 E21.82241
G0 F6000 X74.179 Y61.589
G1 F600 X74.555 Y61.184 E21.85273
G1 X74.684 Y61.055 E21.86275
G1 X75.267 Y60.529 E21.90584
G1 X75.899 Y60.066 E21.94883
G1 X76.576 Y59.669 E21.9919
G1 X77.29 Y59.343 E22.03498
G1 X78.033 Y59.091 E22.07803
G1 X78.798 Y58.916 E22.1211
G1 X79.577 Y58.82 E22.16418
G1 X80.129 Y58.8 E22.19449
G1 X139.871 Y58.8 E25.47308
G1 X140.655 Y58.84 E25.51616
G1 X141.43 Y58.959 E25.55919
G1 X142.189 Y59.157 E25.60224
G1 X142.924 Y59.431 E25.64529
G1 X143.628 Y59.779 E25.68839
G1 X144.292 Y60.196 E25.73142
G1 X144.911 Y60.679 E25.77451
G1 X145.477 Y61.222 E25.81755
G1 X145.985 Y61.82 E25.86061
G1 X146.43 Y62.466 E25.90366
G1 X146.806 Y63.155 E25.94674
G1 X147.111 Y63.878 E25.9898
G1 X147.34 Y64.628 E26.03283
G1 X147.492 Y65.398 E26.07591
G1 X147.571 Y66.477 E26.13528
G1 X147.677 Y101.8 E28.07379
G1 X154.871 Y101.8 E28.46859
G1 X155.655 Y101.84 E28.51167
G1 X156.43 Y101.959 E28.5547
G1 X157.189 Y102.157 E28.59775
G1 X157.924 Y102.431 E28.6408
G1 X158.628 Y102.779 E28.68389
G1 X159.292 Y103.196 E28.72692
G1 X159.911 Y103.679 E28.77001
G1 X160.316 Y104.055 E28.80034
G1 X160.445 Y104.184 E28.81035
G1 X160.971 Y104.767 E28.85344
G1 X161.434 Y105.399 E28.89644
G1 X161.831 Y106.076 E28.93951
G1 X162.157 Y106.79 E28.98258
G1 X162.409 Y107.533 E29.02564
G1 X162.584 Y108.298 E29.06871
G1 X162.68 Y109.077 E29.11178
G1 X162.7 Y109.629 E29.14209
G1 X162.7 Y153.371 E31.54262
G1 X162.66 Y154.155 E31.5857
G1 X162.541 Y154.93 E31.62873
G1 X162.343 Y155.689 E31.67178
G1 X162.069 Y156.424 E31.71483
G1 X161.721 Y157.128 E31.75792
G1 X161.304 Y157.792 E31.80095
G1 X160.821 Y158.411 E31.84404
G1 X160.445 Y158.816 E31.87437
G1 X160.316 Y158.945 E31.88438
G1 X159.733 Y159.471 E31.92747
G1 X159.101 Y159.934 E31.97047
G1 X158.424 Y160.331 E32.01354
G1 X157.71 Y160.657 E32.05661
G1 X156.967 Y160.909 E32.09967
G1 X156.202 Y161.084 E32.14274
G1 X155.423 Y161.18 E32.18581
G1 X154.871 Y161.2 E32.21613
G1 X65.129 Y161.2 E37.1411
G1 X64.345 Y161.16 E37.18418
G1 X63.57 Y161.041 E37.22721
G1 X62.811 Y160.843 E37.27026
G1 X62.076 Y160.569 E37.3133
G1 X61.372 Y160.221 E37.3564
G1 X60.708 Y159.804 E37.39943
G1 X60.089 Y159.321 E37.44252
G1 X59.684 Y158.945 E37.47285
G1 X59.555 Y158.816 E37.48286
G1 X59.029 Y158.233 E37.52595
G1 X58.566 Y157.601 E37.56895
G1 X58.169 Y156.924 E37.61202
G1 X57.843 Y156.21 E37.65509
G1 X57.591 Y155.467 E37.69815
G1 X57.416 Y154.702 E37.74121
G1 X57.32 Y153.923 E37.78429
G1 X57.3 Y153.371 E37.8146
G1 X57.3 Y109.629 E40.21513
G1 X57.34 Y108.845 E40.25821
G1 X57.459 Y108.07 E40.30124
G1 X57.657 Y107.311 E40.34429
G1 X57.931 Y106.576 E40.38734
G1 X58.279 Y105.872 E40.43043
G1 X58.696 Y105.208 E40.47346
G1 X59.179 Y104.589 E40.51655
G1 X59.555 Y104.184 E40.54688
G1 X59.684 Y104.055 E40.55689
G1 X60.267 Y103.529 E40.59998
G1 X60.899 Y103.066 E40.64298
G1 X61.576 Y102.669 E40.68605
G1 X62.29 Y102.343 E40.72912
G1 X63.033 Y102.091 E40.77218
G1 X63.798 Y101.916 E40.81525
G1 X64.577 Y101.82 E40.85832
G1 X65.129 Y101.8 E40.88863
G1 X72.3 Y101.8 E41.28217
G1 X72.3 Y66.629 E43.21233
G1 X72.34 Y65.845 E43.25541
G1 X72.459 Y65.07 E43.29844
G1 X72.657 Y64.311 E43.34149
G1 X72.931 Y63.576 E43.38454
G1 X73.279 Y62.872 E43.42763
G1 X73.696 Y62.208 E43.47066
G1 X74.179 Y61.589 E43.51375
G0 F6000 X74.133 Y62.352
G1 F600 X74.866 Y61.495 E43.57564
G1 X74.995 Y61.366 E43.58565
G1 X75.562 Y60.857 E43.62747
G1 X76.178 Y60.409 E43.66927
G1 X76.838 Y60.029 E43.71106
G1 X77.534 Y59.719 E43.75288
G1 X78.259 Y59.485 E43.79468
G1 X79.005 Y59.328 E43.83652
G1 X80.129 Y59.24 E43.89839
G1 X139.871 Y59.24 E47.17699
G1 X140.632 Y59.28 E47.21881
G1 X141.384 Y59.399 E47.26059
G1 X142.12 Y59.597 E47.30242
G1 X142.831 Y59.871 E47.34423
G1 X143.509 Y60.217 E47.38601
G1 X144.148 Y60.633 E47.42785
G1 X144.739 Y61.114 E47.46967
G1 X145.277 Y61.654 E47.5115
G1 X145.755 Y62.247 E47.5533
G1 X146.168 Y62.887 E47.5951
G1 X146.512 Y63.566 E47.63688
G1 X146.783 Y64.279 E47.67874
G1 X146.978 Y65.015 E47.72052
G1 X147.094 Y65.768 E47.76233
G1 X147.131 Y66.478 E47.80135
G1 X147.238 Y102.24 E49.76395
G1 X154.871 Y102.24 E50.18284
G1 X155.632 Y102.28 E50.22466
G1 X156.384 Y102.399 E50.26644
G1 X157.12 Y102.597 E50.30827
G1 X157.831 Y102.871 E50.35009
G1 X158.509 Y103.217 E50.39186
G1 X159.148 Y103.633 E50.43371
G1 X160.005 Y104.366 E50.49559
G1 X160.134 Y104.495 E50.50561
G1 X160.643 Y105.062 E50.54742
G1 X161.091 Y105.678 E50.58922
G1 X161.471 Y106.338 E50.63102
G1 X161.781 Y107.034 E50.67283
G1 X162.015 Y107.759 E50.71464
G1 X162.172 Y108.505 E50.75647
G1 X162.26 Y109.629 E50.81835
G1 X162.26 Y153.371 E53.21887
G1 X162.22 Y154.132 E53.2607
G1 X162.101 Y154.884 E53.30248
G1 X161.903 Y155.62 E53.34431
G1 X161.629 Y156.331 E53.38612
G1 X161.283 Y157.009 E53.42789
G1 X160.867 Y157.648 E53.46974
G1 X160.134 Y158.505 E53.53163
G1 X160.005 Y158.634 E53.54164
G1 X159.438 Y159.143 E53.58345
G1 X158.822 Y159.591 E53.62525
G1 X158.162 Y159.971 E53.66705
G1 X157.466 Y160.281 E53.70886
G1 X156.741 Y160.515 E53.75067
G1 X155.995 Y160.672 E53.79251
G1 X154.871 Y160.76 E53.85438
G1 X65.129 Y160.76 E58.77935
G1 X64.368 Y160.72 E58.82117
G1 X63.616 Y160.601 E58.86296
G1 X62.88 Y160.403 E58.90478
G1 X62.169 Y160.129 E58.9466
G1 X61.491 Y159.783 E58.98837
G1 X60.852 Y159.367 E59.03022
G1 X59.995 Y158.634 E59.0921
G1 X59.866 Y158.505 E59.10212
G1 X59.357 Y157.938 E59.14393
G1 X58.909 Y157.322 E59.18573
G1 X58.529 Y156.662 E59.22753
G1 X58.219 Y155.966 E59.26934
G1 X57.985 Y155.241 E59.31115
G1 X57.828 Y154.495 E59.35299
G1 X57.74 Y153.371 E59.41486
G1 X57.74 Y109.629 E61.81539
G1 X57.78 Y108.868 E61.85721
G1 X57.899 Y108.116 E61.89899
G1 X58.097 Y107.38 E61.94082
G1 X58.371 Y106.669 E61.98263
G1 X58.717 Y105.991 E62.02441
G1 X59.133 Y105.352 E62.06625
G1 X59.866 Y104.495 E62.12814
G1 X59.995 Y104.366 E62.13815
G1 X60.562 Y103.857 E62.17997
G1 X61.178 Y103.409 E62.22177
G1 X61.838 Y103.029 E62.26356
G1 X62.534 Y102.719 E62.30537
G1 X63.259 Y102.485 E62.34718
G1 X64.005 Y102.328 E62.38902
G1 X65.129 Y102.24 E62.45089
G1 X72.74 Y102.24 E62.86858
G1 X72.74 Y66.629 E64.82288
G1 X72.78 Y65.868 E64.8647
G1 X72.899 Y65.116 E64.90649
G1 X73.097 Y64.38 E64.94831
G1 X73.371 Y63.669 E64.99013
G1 X73.717 Y62.991 E65.0319
G1 X74.133 Y62.352 E65.07375
G0 F6000 X74.57 Y62.502
G1 F600 X75.178 Y61.807 E65.12442
G1 X75.307 Y61.678 E65.13443
G1 X75.856 Y61.184 E65.17496
G1 X76.456 Y60.754 E65.21548
G1 X77.099 Y60.39 E65.25602
G1 X77.777 Y60.098 E65.29654
G1 X78.483 Y59.882 E65.33705
G1 X79.208 Y59.742 E65.37758
G1 X80.129 Y59.68 E65.42823
G1 X139.871 Y59.68 E68.70683
G1 X140.608 Y59.72 E68.74733
G1 X141.337 Y59.839 E68.78787
G1 X142.048 Y60.037 E68.82838
G1 X142.734 Y60.31 E68.86889
G1 X143.387 Y60.656 E68.90945
G1 X143.998 Y61.07 E68.94995
G1 X144.561 Y61.548 E68.99048
G1 X145.069 Y62.084 E69.03101
G1 X145.515 Y62.672 E69.07151
G1 X145.896 Y63.305 E69.11206
G1 X146.206 Y63.975 E69.15257
G1 X146.442 Y64.675 E69.19311
G1 X146.601 Y65.396 E69.23363
G1 X146.691 Y66.48 E69.29333
G1 X146.8 Y102.68 E71.27996
G1 X154.871 Y102.68 E71.72289
G1 X155.608 Y102.72 E71.7634
G1 X156.337 Y102.839 E71.80393
G1 X157.048 Y103.037 E71.84444
G1 X157.734 Y103.31 E71.88496
G1 X158.387 Y103.656 E71.92551
G1 X158.998 Y104.07 E71.96602
G1 X159.693 Y104.678 E72.01669
G1 X159.822 Y104.807 E72.0267
G1 X160.316 Y105.356 E72.06723
G1 X160.746 Y105.956 E72.10775
G1 X161.11 Y106.599 E72.14829
G1 X161.402 Y107.277 E72.18881
G1 X161.618 Y107.983 E72.22932
G1 X161.758 Y108.708 E72.26985
G1 X161.82 Y109.629 E72.3205
G1 X161.82 Y153.371 E74.72103
G1 X161.78 Y154.108 E74.76154
G1 X161.661 Y154.837 E74.80207
G1 X161.463 Y155.548 E74.84258
G1 X161.19 Y156.234 E74.8831
G1 X160.844 Y156.887 E74.92365
G1 X160.43 Y157.498 E74.96416
G1 X159.822 Y158.193 E75.01483
G1 X159.693 Y158.322 E75.02484
G1 X159.144 Y158.816 E75.06537
G1 X158.544 Y159.246 E75.10588
G1 X157.901 Y159.61 E75.14643
G1 X157.223 Y159.902 E75.18695
G1 X156.517 Y160.118 E75.22746
G1 X155.792 Y160.258 E75.26799
G1 X154.871 Y160.32 E75.31864
G1 X65.129 Y160.32 E80.24362
G1 X64.392 Y160.28 E80.28412
G1 X63.663 Y160.161 E80.32466
G1 X62.952 Y159.963 E80.36516
G1 X62.266 Y159.69 E80.40568
G1 X61.613 Y159.344 E80.44624
G1 X61.002 Y158.93 E80.48674
G1 X60.307 Y158.322 E80.53742
G1 X60.178 Y158.193 E80.54743
G1 X59.684 Y157.644 E80.58796
G1 X59.254 Y157.044 E80.62847
G1 X58.89 Y156.401 E80.66902
G1 X58.598 Y155.723 E80.70953
G1 X58.382 Y155.017 E80.75005
G1 X58.242 Y154.292 E80.79057
G1 X58.18 Y153.371 E80.84123
G1 X58.18 Y109.629 E83.24175
G1 X58.22 Y108.892 E83.28226
G1 X58.339 Y108.163 E83.3228
G1 X58.537 Y107.452 E83.3633
G1 X58.81 Y106.766 E83.40382
G1 X59.156 Y106.113 E83.44437
G1 X59.57 Y105.502 E83.48488
G1 X60.178 Y104.807 E83.53555
G1 X60.307 Y104.678 E83.54557
G1 X60.856 Y104.184 E83.5861
G1 X61.456 Y103.754 E83.62661
G1 X62.099 Y103.39 E83.66716
G1 X62.777 Y103.098 E83.70767
G1 X63.483 Y102.882 E83.74819
G1 X64.208 Y102.742 E83.78871
G1 X65.129 Y102.68 E83.83937
G1 X73.18 Y102.68 E84.2812
G1 X73.18 Y66.629 E86.25965
G1 X73.22 Y65.892 E86.30016
G1 X73.339 Y65.163 E86.34069
G1 X73.537 Y64.452 E86.3812
G1 X73.81 Y63.766 E86.42171
G1 X74.156 Y63.113 E86.46227
G1 X74.57 Y62.502 E86.50277
G0 F6000 X75.007 Y62.657
G1 F600 X75.489 Y62.118 E86.54246
G1 X75.618 Y61.989 E86.55247
G1 X76.15 Y61.513 E86.59164
G1 X76.732 Y61.099 E86.63084
G1 X77.357 Y60.754 E86.67002
G1 X78.017 Y60.48 E86.70924
G1 X78.703 Y60.281 E86.74844
G1 X79.407 Y60.161 E86.78763
G1 X80.129 Y60.12 E86.82731
G1 X139.871 Y60.12 E90.10591
G1 X140.584 Y60.16 E90.1451
G1 X141.288 Y60.279 E90.18428
G1 X141.974 Y60.477 E90.22347
G1 X142.634 Y60.75 E90.26266
G1 X143.26 Y61.094 E90.30186
G1 X143.843 Y61.507 E90.34107
G1 X144.376 Y61.982 E90.38025
G1 X144.853 Y62.514 E90.41947
G1 X145.267 Y63.096 E90.45866
G1 X145.613 Y63.72 E90.49782
G1 X145.888 Y64.379 E90.53701
G1 X146.088 Y65.065 E90.57622
G1 X146.209 Y65.769 E90.61542
G1 X146.251 Y66.481 E90.65456
G1 X146.361 Y103.12 E92.66529
G1 X154.871 Y103.12 E93.13231
G1 X155.584 Y103.16 E93.17151
G1 X156.288 Y103.279 E93.21069
G1 X156.974 Y103.477 E93.24987
G1 X157.634 Y103.75 E93.28907
G1 X158.26 Y104.094 E93.32827
G1 X158.843 Y104.507 E93.36748
G1 X159.382 Y104.989 E93.40716
G1 X159.511 Y105.118 E93.41717
G1 X159.987 Y105.65 E93.45635
G1 X160.401 Y106.232 E93.49554
G1 X160.746 Y106.857 E93.53472
G1 X161.02 Y107.517 E93.57394
G1 X161.219 Y108.203 E93.61314
G1 X161.339 Y108.907 E93.65233
G1 X161.38 Y109.629 E93.69202
G1 X161.38 Y153.371 E96.09254
G1 X161.34 Y154.084 E96.13174
G1 X161.221 Y154.788 E96.17092
G1 X161.023 Y155.474 E96.2101
G1 X160.75 Y156.134 E96.2493
G1 X160.406 Y156.76 E96.2885
G1 X159.993 Y157.343 E96.32771
G1 X159.511 Y157.882 E96.36739
G1 X159.382 Y158.011 E96.3774
G1 X158.85 Y158.487 E96.41658
G1 X158.268 Y158.901 E96.45577
G1 X157.643 Y159.246 E96.49495
G1 X156.983 Y159.52 E96.53417
G1 X156.297 Y159.719 E96.57337
G1 X155.593 Y159.839 E96.61256
G1 X154.871 Y159.88 E96.65225
G1 X65.129 Y159.88 E101.57722
G1 X64.416 Y159.84 E101.61641
G1 X63.712 Y159.721 E101.65559
G1 X63.026 Y159.523 E101.69478
G1 X62.366 Y159.25 E101.73397
G1 X61.74 Y158.906 E101.77317
G1 X61.157 Y158.493 E101.81238
G1 X60.618 Y158.011 E101.85206
G1 X60.489 Y157.882 E101.86208
G1 X60.013 Y157.35 E101.90125
G1 X59.599 Y156.768 E101.94045
G1 X59.254 Y156.143 E101.97963
G1 X58.98 Y155.483 E102.01884
G1 X58.781 Y154.797 E102.05804
G1 X58.661 Y154.093 E102.09724
G1 X58.62 Y153.371 E102.13692
G1 X58.62 Y109.629 E104.53745
G1 X58.66 Y108.916 E104.57664
G1 X58.779 Y108.212 E104.61582
G1 X58.977 Y107.526 E104.65501
G1 X59.25 Y106.866 E104.6942
G1 X59.594 Y106.24 E104.7334
G1 X60.007 Y105.657 E104.77261
G1 X60.489 Y105.118 E104.81229
G1 X60.618 Y104.989 E104.82231
G1 X61.15 Y104.513 E104.86148
G1 X61.732 Y104.099 E104.90068
G1 X62.357 Y103.754 E104.93986
G1 X63.017 Y103.48 E104.97907
G1 X63.703 Y103.281 E105.01827
G1 X64.407 Y103.161 E105.05747
G1 X65.129 Y103.12 E105.09715
