;FLAVOR:Marlin
;TIME:3613
;Filament used: 2.68051m
;Layer height: 0.2
;MINX:92.22
;MINY:85.724
;MINZ:0.3
;MAXX:127.78
;MAXY:134.276
;MAXZ:10.1
;Generated with Cura_SteamEngine 4.2.1
M140 S50
M105
M190 S50
M104 S205
M105
M109 S205
M82 ;absolute extrusion mode
M201 X500.00 Y500.00 Z100.00 E5000.00 ;Setup machine max acceleration
M203 X500.00 Y500.00 Z10.00 E50.00 ;Setup machine max feedrate
M204 P500.00 R1000.00 T500.00 ;Setup Print/Retract/Travel acceleration
M205 X8.00 Y8.00 Z0.40 E5.00 ;Setup Jerk
M220 S100 ;Reset Feedrate
M221 S100 ;Reset Flowrate

G28 ;Home

G92 E0 ;Reset Extruder
G1 Z2.0 F3000 ;Move Z Axis up
G1 X10.1 Y20 Z0.28 F5000.0 ;Move to start position
G1 X10.1 Y200.0 Z0.28 F1500.0 E15 ;Draw the first line
G1 X10.4 Y200.0 Z0.28 F5000.0 ;Move to side a little
G1 X10.4 Y20 Z0.28 F1500.0 E30 ;Draw the second line
G92 E0 ;Reset Extruder
G1 Z2.0 F3000 ;Move Z Axis up

G92 E0
G92 E0
G1 F2700 E-5
;LAYER_COUNT:49
;LAYER:0
M107
;MESH:SensorBase.stl
G0 F6000 X101.1 Y92.604 Z0.3
;TYPE:WALL-INNER
G1 F2700 E0
G1 F600 X101.1 Y86.604 E0.32928
G1 X118.9 Y86.604 E1.30613
G1 X118.9 Y92.604 E1.6354
G1 X126.68 Y92.604 E2.06236
G1 X126.9 Y92.604 E2.07443
G1 X126.9 Y92.824 E2.08224
G1 X126.895 Y116.569 E3.38535
G1 X126.783 Y118.47 E3.48985
G1 X126.439 Y120.415 E3.59825
G1 X125.88 Y122.281 E3.70515
G1 X125.103 Y124.081 E3.81275
G1 X124.118 Y125.791 E3.92104
G1 X122.948 Y127.362 E4.02854
G1 X121.571 Y128.816 E4.13844
G1 X120.058 Y130.079 E4.2466
G1 X118.417 Y131.154 E4.35426
G1 X116.651 Y132.036 E4.46259
G1 X114.852 Y132.691 E4.56766
G1 X112.899 Y133.151 E4.67777
G1 X110.937 Y133.374 E4.78614
G1 X109.009 Y133.373 E4.89195
G1 X107.059 Y133.146 E4.99968
G1 X105.147 Y132.69 E5.10756
G1 X103.274 Y132.004 E5.21702
G1 X101.565 Y131.149 E5.32189
G1 X99.91 Y130.059 E5.43065
G1 X98.406 Y128.797 E5.53839
G1 X97.054 Y127.365 E5.64647
G1 X95.866 Y125.764 E5.75588
G1 X94.879 Y124.042 E5.8648
G1 X94.116 Y122.265 E5.97093
G1 X93.549 Y120.352 E6.08043
G1 X93.213 Y118.423 E6.18789
G1 X93.1 Y116.482 E6.29459
G1 X93.1 Y92.604 E7.605
G1 X101.1 Y92.604 E8.04403
G0 F6000 X100.66 Y92.164
G1 F600 X100.66 Y86.164 E8.3733
G1 X119.34 Y86.164 E9.39845
G1 X119.34 Y92.164 E9.72772
G1 X127.12 Y92.164 E10.15468
G1 X127.34 Y92.164 E10.16676
G1 X127.34 Y92.384 E10.17456
G1 X127.335 Y116.569 E11.50182
G1 X127.223 Y118.511 E11.60857
G1 X127.215 Y118.551 E11.61081
G1 X126.875 Y120.49 E11.71884
G1 X126.86 Y120.541 E11.72176
G1 X126.295 Y122.43 E11.82997
G1 X126.279 Y122.466 E11.83213
G1 X125.497 Y124.279 E11.94048
G1 X124.485 Y126.035 E12.05171
G1 X123.287 Y127.644 E12.1618
G1 X121.869 Y129.141 E12.27496
G1 X120.322 Y130.432 E12.38554
G1 X118.632 Y131.539 E12.49641
G1 X116.831 Y132.438 E12.60687
G1 X114.978 Y133.113 E12.7151
G1 X112.974 Y133.585 E12.82809
G1 X110.961 Y133.814 E12.93927
G1 X108.998 Y133.815 E13.047
G1 X108.957 Y133.81 E13.04927
G1 X106.984 Y133.58 E13.15828
G1 X105.038 Y133.119 E13.26803
G1 X104.995 Y133.103 E13.27055
G1 X103.1 Y132.409 E13.3813
G1 X101.339 Y131.527 E13.48938
G1 X99.649 Y130.415 E13.60041
G1 X98.104 Y129.118 E13.71111
G1 X96.718 Y127.651 E13.82187
G1 X95.494 Y126 E13.93466
G1 X94.487 Y124.243 E14.04579
G1 X93.709 Y122.439 E14.15361
G1 X93.695 Y122.393 E14.15625
G1 X93.121 Y120.458 E14.26701
G1 X92.775 Y118.471 E14.3777
G1 X92.66 Y116.491 E14.48654
G1 X92.66 Y92.164 E15.82159
G1 X100.66 Y92.164 E16.26062
G0 F6000 X100.22 Y91.724
;TYPE:WALL-OUTER
G1 F600 X100.22 Y85.724 E16.5899
G1 X119.78 Y85.724 E17.66334
G1 X119.78 Y91.724 E17.99261
G1 X127.56 Y91.724 E18.41957
G1 X127.78 Y91.724 E18.43165
G1 X127.78 Y91.944 E18.43945
G1 X127.775 Y116.569 E19.79085
G1 X127.66 Y118.569 E19.90079
G1 X127.648 Y118.631 E19.90426
G1 X127.303 Y120.595 E20.01369
G1 X127.282 Y120.666 E20.01776
G1 X126.706 Y122.589 E20.12792
G1 X126.681 Y122.644 E20.13124
G1 X125.891 Y124.477 E20.24078
G1 X124.852 Y126.279 E20.35493
G1 X123.626 Y127.926 E20.46761
G1 X122.201 Y129.436 E20.58155
G1 X122.152 Y129.478 E20.58509
G1 X120.618 Y130.764 E20.69494
G1 X120.564 Y130.8 E20.69851
G1 X118.889 Y131.902 E20.80854
G1 X118.832 Y131.931 E20.81205
G1 X117.041 Y132.829 E20.922
G1 X116.982 Y132.851 E20.92546
G1 X115.102 Y133.536 E21.03526
G1 X113.088 Y134.014 E21.14886
G1 X113.025 Y134.022 E21.15235
G1 X111.032 Y134.253 E21.26245
G1 X110.968 Y134.254 E21.26597
G1 X108.968 Y134.255 E21.37572
G1 X108.904 Y134.247 E21.37926
G1 X106.909 Y134.014 E21.48949
G1 X104.909 Y133.54 E21.60229
G1 X104.844 Y133.516 E21.60609
G1 X102.957 Y132.83 E21.71628
G1 X102.902 Y132.802 E21.71967
G1 X101.113 Y131.905 E21.8295
G1 X99.388 Y130.771 E21.94279
G1 X97.802 Y129.439 E22.05645
G1 X96.379 Y127.933 E22.17016
G1 X95.148 Y126.279 E22.28331
G1 X95.113 Y126.22 E22.28707
G1 X94.109 Y124.476 E22.39751
G1 X94.085 Y124.422 E22.40075
G1 X93.294 Y122.587 E22.51041
G1 X93.274 Y122.522 E22.51414
G1 X92.7 Y120.603 E22.62407
G1 X92.688 Y120.538 E22.6277
G1 X92.34 Y118.558 E22.73802
G1 X92.336 Y118.503 E22.74105
G1 X92.22 Y116.491 E22.85165
G1 X92.22 Y91.724 E24.21084
G1 X100.22 Y91.724 E24.64988
G1 F2700 E19.64988
G1 F600 Z0.5
G0 F6000 X101.53 Y93.034 Z0.5
;TYPE:SKIN
G1 F600 Z0.3
G1 F2700 E24.64988
G1 F600 X101.53 Y87.034 E24.97915
G1 X118.47 Y87.034 E25.90881
G1 X118.47 Y93.034 E26.23808
G1 X126.47 Y93.034 E26.67711
G1 X126.465 Y116.544 E27.96732
G1 X126.355 Y118.421 E28.07051
G1 X126.018 Y120.321 E28.17641
G1 X125.476 Y122.132 E28.28015
G1 X124.72 Y123.883 E28.38482
G1 X123.75 Y125.567 E28.49147
G1 X122.628 Y127.074 E28.59458
G1 X121.277 Y128.502 E28.70246
G1 X119.804 Y129.731 E28.80774
G1 X118.201 Y130.782 E28.91293
G1 X116.478 Y131.641 E29.01859
G1 X114.724 Y132.28 E29.12103
G1 X112.838 Y132.725 E29.22738
G1 X110.906 Y132.944 E29.33408
G1 X109.04 Y132.943 E29.43649
G1 X107.126 Y132.72 E29.54224
G1 X105.275 Y132.279 E29.64666
G1 X103.445 Y131.608 E29.75363
G1 X101.776 Y130.774 E29.85602
G1 X100.171 Y129.717 E29.96149
G1 X98.701 Y128.483 E30.06682
G1 X97.385 Y127.089 E30.17202
G1 X96.222 Y125.522 E30.27912
G1 X95.266 Y123.854 E30.38462
G1 X94.521 Y122.118 E30.4883
G1 X93.969 Y120.257 E30.59483
G1 X93.641 Y118.376 E30.69961
G1 X93.53 Y116.457 E30.8051
G1 X93.53 Y93.034 E32.09054
G1 X101.53 Y93.034 E32.52957
G1 F2700 E27.52957
G1 F600 Z0.5
G0 F6000 X126.292 Y93.313 Z0.5
G1 F600 Z0.3
G1 F2700 E32.52957
G1 F600 X126.189 Y93.21 E32.53756
G0 F6000 X125.567 Y93.21
G1 F600 X126.292 Y93.935 E32.59383
G0 F6000 X126.292 Y94.557
G1 F600 X124.945 Y93.21 E32.69837
G0 F6000 X124.322 Y93.21
G1 F600 X126.292 Y95.18 E32.85127
G0 F6000 X126.292 Y95.802
G1 F600 X123.7 Y93.21 E33.05243
G0 F6000 X123.078 Y93.21
G1 F600 X126.292 Y96.424 E33.30188
G0 F6000 X126.292 Y97.046
G1 F600 X122.456 Y93.21 E33.59959
G0 F6000 X121.833 Y93.21
G1 F600 X126.292 Y97.668 E33.94562
G0 F6000 X126.292 Y98.29
G1 F600 X121.211 Y93.21 E34.33992
G0 F6000 X120.589 Y93.21
G1 F600 X126.292 Y98.912 E34.7825
G0 F6000 X126.292 Y99.535
G1 F600 X119.967 Y93.21 E35.27339
G0 F6000 X119.344 Y93.21
G1 F600 X126.292 Y100.157 E35.81259
G0 F6000 X126.292 Y100.779
G1 F600 X118.722 Y93.21 E36.40007
G0 F6000 X118.293 Y92.78
G1 F600 X112.722 Y87.21 E36.8324
G0 F6000 X113.344 Y87.21
G1 F600 X118.293 Y92.158 E37.21646
G0 F6000 X118.293 Y91.536
G1 F600 X113.967 Y87.21 E37.5522
G0 F6000 X114.589 Y87.21
G1 F600 X118.293 Y90.914 E37.83967
G0 F6000 X118.293 Y90.291
G1 F600 X115.211 Y87.21 E38.07883
G0 F6000 X115.833 Y87.21
G1 F600 X118.293 Y89.669 E38.26971
G0 F6000 X118.293 Y89.047
G1 F600 X116.456 Y87.21 E38.41229
G0 F6000 X117.078 Y87.21
G1 F600 X118.293 Y88.425 E38.50658
G0 F6000 X118.293 Y87.802
G1 F600 X117.7 Y87.21 E38.55257
G1 F2700 E33.55257
G1 F600 Z0.5
G0 F6000 X112.1 Y87.21 Z0.5
G1 F600 Z0.3
G1 F2700 E38.55257
G1 F600 X126.291 Y101.401 E39.65394
G0 F6000 X126.291 Y102.023
G1 F600 X111.478 Y87.21 E40.80359
G0 F6000 X110.855 Y87.21
G1 F600 X126.291 Y102.645 E42.00156
G0 F6000 X126.291 Y103.267
G1 F600 X110.233 Y87.21 E43.2478
G0 F6000 X109.611 Y87.21
G1 F600 X126.291 Y103.89 E44.54235
G0 F6000 X126.291 Y104.512
G1 F600 X108.989 Y87.21 E45.88517
G0 F6000 X108.366 Y87.21
G1 F600 X126.29 Y105.134 E47.27627
G0 F6000 X126.29 Y105.756
G1 F600 X107.744 Y87.21 E48.71564
G0 F6000 X107.122 Y87.21
G1 F600 X126.29 Y106.378 E50.20329
G0 F6000 X126.29 Y107
G1 F600 X106.5 Y87.21 E51.73921
G0 F6000 X105.877 Y87.21
G1 F600 X126.29 Y107.623 E53.32348
G0 F6000 X126.29 Y108.245
G1 F600 X105.255 Y87.21 E54.95603
G0 F6000 X104.633 Y87.21
G1 F600 X126.289 Y108.866 E56.63677
G0 F6000 X126.289 Y109.489
G1 F600 X104.011 Y87.21 E58.36583
G0 F6000 X103.388 Y87.21
G1 F600 X126.289 Y110.111 E60.14319
G0 F6000 X126.289 Y110.733
G1 F600 X102.766 Y87.21 E61.96884
G0 F6000 X102.144 Y87.21
G1 F600 X126.289 Y111.355 E63.84275
G0 F6000 X126.289 Y111.978
G1 F600 X101.705 Y87.393 E65.75078
G0 F6000 X101.705 Y88.015
G1 F600 X126.289 Y112.6 E67.6588
G0 F6000 X126.289 Y113.221
G1 F600 X101.705 Y88.637 E69.56679
G0 F6000 X101.705 Y89.26
G1 F600 X126.289 Y113.844 E71.47478
G0 F6000 X126.289 Y114.466
G1 F600 X101.705 Y89.882 E73.38277
G0 F6000 X101.705 Y90.504
G1 F600 X126.289 Y115.088 E75.29075
G0 F6000 X126.289 Y115.71
G1 F600 X101.705 Y91.126 E77.19874
G0 F6000 X101.705 Y91.749
G1 F600 X126.289 Y116.333 E79.10673
G0 F6000 X126.265 Y116.931
G1 F600 X101.705 Y92.371 E81.01285
G0 F6000 X101.705 Y92.993
G1 F600 X126.231 Y117.519 E82.91634
G0 F6000 X126.196 Y118.107
G1 F600 X101.299 Y93.21 E84.84862
G0 F6000 X100.677 Y93.21
G1 F600 X126.132 Y118.665 E86.82421
G0 F6000 X126.038 Y119.194
G1 F600 X100.054 Y93.21 E88.84085
G0 F6000 X99.432 Y93.21
G1 F600 X125.944 Y119.722 E90.89847
G0 F6000 X125.851 Y120.251
G1 F600 X98.81 Y93.21 E92.99715
G0 F6000 X98.188 Y93.21
G1 F600 X125.71 Y120.732 E95.13316
G0 F6000 X125.567 Y121.211
G1 F600 X97.565 Y93.21 E97.30638
G0 F6000 X96.943 Y93.21
G1 F600 X125.423 Y121.69 E99.51674
G0 F6000 X125.271 Y122.16
G1 F600 X96.321 Y93.21 E101.76357
G0 F6000 X95.699 Y93.21
G1 F600 X125.084 Y122.595 E104.04417
G0 F6000 X124.896 Y123.029
G1 F600 X95.076 Y93.21 E106.35849
G0 F6000 X94.454 Y93.21
G1 F600 X124.708 Y123.464 E108.70653
G0 F6000 X124.511 Y123.889
G1 F600 X93.832 Y93.21 E111.08756
G0 F6000 X93.705 Y93.705
G1 F600 X124.284 Y124.284 E113.46082
G0 F6000 X124.056 Y124.679
G1 F600 X93.705 Y94.327 E115.81643
G0 F6000 X93.705 Y94.949
G1 F600 X123.829 Y125.074 E118.15442
G0 F6000 X123.602 Y125.469
G1 F600 X93.705 Y95.571 E120.4748
G0 F6000 X93.705 Y96.194
G1 F600 X123.337 Y125.826 E122.77456
G0 F6000 X123.072 Y126.183
G1 F600 X93.705 Y96.816 E125.05376
G0 F6000 X93.705 Y97.438
G1 F600 X122.806 Y126.54 E127.31236
G0 F6000 X122.541 Y126.897
G1 F600 X93.705 Y98.06 E129.55039
G0 F6000 X93.705 Y98.683
G1 F600 X122.245 Y127.223 E131.7654
G0 F6000 X121.942 Y127.542
G1 F600 X93.705 Y99.305 E133.9569
G0 F6000 X93.705 Y99.927
G1 F600 X121.64 Y127.862 E136.12496
G0 F6000 X121.337 Y128.182
G1 F600 X93.705 Y100.549 E138.26955
G0 F6000 X93.705 Y101.172
G1 F600 X121.019 Y128.486 E140.38941
G0 F6000 X120.68 Y128.769
G1 F600 X93.705 Y101.794 E142.48297
G0 F6000 X93.705 Y102.416
G1 F600 X120.341 Y129.052 E144.55021
G0 F6000 X120.001 Y129.335
G1 F600 X93.705 Y103.038 E146.59111
G0 F6000 X93.705 Y103.661
G1 F600 X119.658 Y129.614 E148.60535
G0 F6000 X119.282 Y129.86
G1 F600 X93.705 Y104.283 E150.5904
G0 F6000 X93.705 Y104.906
G1 F600 X118.907 Y130.107 E152.54631
G0 F6000 X118.53 Y130.353
G1 F600 X93.705 Y105.528 E154.47301
G0 F6000 X93.705 Y106.15
G1 F600 X118.155 Y130.6 E156.37059
G0 F6000 X117.744 Y130.811
G1 F600 X93.705 Y106.773 E158.23624
G0 F6000 X93.705 Y107.395
G1 F600 X117.328 Y131.018 E160.06965
G0 F6000 X116.913 Y131.225
G1 F600 X93.705 Y108.017 E161.87084
G0 F6000 X93.705 Y108.639
G1 F600 X116.497 Y131.432 E163.63979
G0 F6000 X116.051 Y131.607
G1 F600 X93.705 Y109.262 E165.37405
G0 F6000 X93.705 Y109.884
G1 F600 X115.594 Y131.773 E167.07287
G0 F6000 X115.138 Y131.939
G1 F600 X93.705 Y110.506 E168.73631
G0 F6000 X93.705 Y111.128
G1 F600 X114.682 Y132.105 E170.36435
G0 F6000 X114.18 Y132.225
G1 F600 X93.705 Y111.751 E171.9534
G0 F6000 X93.705 Y112.373
G1 F600 X113.677 Y132.344 E173.5034
G0 F6000 X113.173 Y132.463
G1 F600 X93.705 Y112.995 E175.01433
G0 F6000 X93.705 Y113.617
G1 F600 X112.654 Y132.566 E176.48498
G0 F6000 X112.095 Y132.629
G1 F600 X93.705 Y114.24 E177.91221
G0 F6000 X93.705 Y114.862
G1 F600 X111.536 Y132.693 E179.29609
G0 F6000 X110.978 Y132.757
G1 F600 X93.705 Y115.484 E180.63666
G0 F6000 X93.705 Y116.106
G1 F600 X110.365 Y132.766 E181.92966
G0 F6000 X109.742 Y132.766
G1 F600 X93.723 Y116.746 E183.17295
G0 F6000 X93.761 Y117.407
G1 F600 X109.12 Y132.766 E184.36498
G0 F6000 X108.424 Y132.692
G1 F600 X93.799 Y118.067 E185.50004
G0 F6000 X93.889 Y118.779
G1 F600 X107.719 Y132.61 E186.57343
G0 F6000 X106.993 Y132.506
G1 F600 X94.021 Y119.533 E187.58024
G0 F6000 X94.165 Y120.3
G1 F600 X106.177 Y132.311 E188.51247
G0 F6000 X105.361 Y132.117
G1 F600 X94.428 Y121.185 E189.36095
G0 F6000 X94.694 Y122.073
G1 F600 X104.384 Y131.763 E190.113
G0 F6000 X103.372 Y131.374
G1 F600 X95.161 Y123.162 E190.7503
G0 F6000 X95.79 Y124.414
G1 F600 X102.128 Y130.751 E191.24216
G1 F2700 E186.24216
G1 F600 Z0.5
G0 F6000 X100.428 Y129.674 Z0.5
G1 F600 Z0.3
G1 F2700 E191.24216
G1 F600 X96.92 Y126.166 E191.51442
G1 F2700 E186.51442
G1 F600 Z0.5
;MESH:NONMESH
G0 F6000 X101.1 Y92.604 Z0.5
;TIME_ELAPSED:362.889639
;LAYER:1
M140 S50
M106 S127.5
;TYPE:WALL-INNER
;MESH:SensorBase.stl
G1 F600 Z0.5
G1 F2700 E191.51442
G1 F1050 X101.1 Y86.604 E191.73394
G1 X118.9 Y86.604 E192.38517
G1 X118.9 Y92.604 E192.60469
G1 X126.9 Y92.604 E192.89738
G1 X126.9 Y116.491 E193.77131
G1 X126.786 Y118.458 E193.84339
G1 X126.759 Y118.606 E193.8489
G1 X126.445 Y120.394 E193.91532
G1 X125.877 Y122.287 E193.98762
G1 X125.104 Y124.082 E194.05913
G1 X124.121 Y125.786 E194.1311
G1 X122.944 Y127.367 E194.20321
G1 X121.605 Y128.785 E194.27456
G1 X121.481 Y128.891 E194.28053
G1 X120.103 Y130.048 E194.34636
G1 X118.45 Y131.136 E194.41876
G1 X118.32 Y131.202 E194.4241
G1 X116.691 Y132.02 E194.49079
G1 X116.562 Y132.068 E194.49582
G1 X114.841 Y132.693 E194.56281
G1 X114.706 Y132.725 E194.56789
G1 X112.934 Y133.145 E194.63452
G1 X112.792 Y133.163 E194.63975
G1 X110.984 Y133.373 E194.70635
G1 X110.837 Y133.374 E194.71172
G1 X109.026 Y133.375 E194.77798
G1 X107.066 Y133.147 E194.85017
G1 X105.172 Y132.698 E194.92139
G1 X103.306 Y132.02 E194.99402
G1 X101.561 Y131.144 E195.06546
G1 X101.43 Y131.06 E195.07115
G1 X99.916 Y130.064 E195.13746
G1 X98.41 Y128.801 E195.20937
G1 X97.061 Y127.372 E195.28126
G1 X95.888 Y125.799 E195.35305
G1 X95.811 Y125.667 E195.35865
G1 X94.901 Y124.091 E195.42523
G1 X94.841 Y123.955 E195.43067
G1 X94.126 Y122.297 E195.49673
G1 X94.079 Y122.143 E195.50262
G1 X93.553 Y120.381 E195.56989
G1 X93.529 Y120.252 E195.57469
G1 X93.218 Y118.473 E195.64077
G1 X93.1 Y116.466 E195.71432
G1 X93.1 Y92.604 E196.58734
G1 X101.1 Y92.604 E196.88003
G0 F7500 X100.66 Y92.164
G1 F1050 X100.66 Y86.164 E197.09955
G1 X119.34 Y86.164 E197.78298
G1 X119.34 Y92.164 E198.00249
G1 X127.34 Y92.164 E198.29518
G1 X127.34 Y116.491 E199.18521
G1 X127.223 Y118.512 E199.25928
G1 X127.192 Y118.683 E199.26564
G1 X126.874 Y120.494 E199.33291
G1 X126.29 Y122.441 E199.40728
G1 X125.498 Y124.28 E199.48053
G1 X124.488 Y126.03 E199.55446
G1 X123.283 Y127.649 E199.62829
G1 X121.903 Y129.11 E199.70182
G1 X121.767 Y129.226 E199.70836
G1 X120.362 Y130.405 E199.77547
G1 X118.671 Y131.518 E199.84953
G1 X118.519 Y131.595 E199.85576
G1 X116.865 Y132.425 E199.92347
G1 X116.712 Y132.482 E199.92944
G1 X114.976 Y133.112 E199.99701
G1 X114.808 Y133.153 E200.00334
G1 X113.016 Y133.578 E200.07072
G1 X112.843 Y133.6 E200.0771
G1 X111.01 Y133.813 E200.14461
G1 X110.84 Y133.814 E200.15083
G1 X109.001 Y133.815 E200.21811
G1 X106.991 Y133.581 E200.29215
G1 X105.041 Y133.119 E200.36547
G1 X103.137 Y132.427 E200.43958
G1 X101.335 Y131.523 E200.51334
G1 X101.191 Y131.43 E200.51962
G1 X99.65 Y130.415 E200.58713
G1 X98.108 Y129.122 E200.66075
G1 X96.722 Y127.654 E200.73461
G1 X95.521 Y126.043 E200.80813
G1 X95.431 Y125.889 E200.81466
G1 X94.507 Y124.289 E200.88226
G1 X94.438 Y124.132 E200.88853
G1 X93.711 Y122.445 E200.95574
G1 X93.658 Y122.272 E200.96236
