;FLAVOR:Marlin
;TIME:322
;Filament used: 0.239306m
;Layer height: 0.2
;MINX:105.72
;MINY:109.331
;MINZ:0.3
;MAXX:114.28
;MAXY:133.891
;MAXZ:3.1
;Generated with Cura_SteamEngine 4.2.1
M140 S50
M105
M190 S50
M104 S205
M105
M109 S205
M82 ;absolute extrusion mode
M201 X500.00 Y500.00 Z100.00 E5000.00 ;Setup machine max acceleration
M203 X500.00 Y500.00 Z10.00 E50.00 ;Setup machine max feedrate
M204 P500.00 R1000.00 T500.00 ;Setup Print/Retract/Travel acceleration
M205 X8.00 Y8.00 Z0.40 E5.00 ;Setup Jerk
M220 S100 ;Reset Feedrate
M221 S100 ;Reset Flowrate

G28 ;Home

G92 E0 ;Reset Extruder
G1 Z2.0 F3000 ;Move Z Axis up
G1 X10.1 Y20 Z0.28 F5000.0 ;Move to start position
G1 X10.1 Y200.0 Z0.28 F1500.0 E15 ;Draw the first line
G1 X10.4 Y200.0 Z0.28 F5000.0 ;Move to side a little
G1 X10.4 Y20 Z0.28 F1500.0 E30 ;Draw the second line
G92 E0 ;Reset Extruder
G1 Z2.0 F3000 ;Move Z Axis up

G92 E0
G92 E0
G1 F2700 E-5
;LAYER_COUNT:14
;LAYER:0
M107
;MESH:FixedJoint.stl
G0 F6000 X106.6 Y133.011 Z0.3
;TYPE:WALL-INNER
G1 F2700 E0
G1 F1200 X106.6 Y110.211 E1.25125
G1 X113.4 Y110.211 E1.62442
G1 X113.4 Y133.011 E2.87567
G1 X106.6 Y133.011 E3.24885
G0 F6000 X106.16 Y133.451
G1 F1200 X106.16 Y109.771 E4.54839
G1 X113.84 Y109.771 E4.96986
G1 X113.84 Y133.451 E6.2694
G1 X106.16 Y133.451 E6.69087
G0 F6000 X105.72 Y133.891
;TYPE:WALL-OUTER
G1 F1200 X105.72 Y109.331 E8.03871
G1 X114.28 Y109.331 E8.50847
G1 X114.28 Y133.891 E9.85631
G1 X105.72 Y133.891 E10.32607
G1 F2700 E5.32607
G1 F600 Z0.5
G0 F6000 X107.03 Y132.581 Z0.5
;TYPE:SKIN
G1 F600 Z0.3
G1 F2700 E10.32607
G1 F1200 X107.03 Y110.641 E11.53012
G1 X112.97 Y110.641 E11.85611
G1 X112.97 Y132.581 E13.06016
G1 X107.03 Y132.581 E13.38614
G0 F6000 X107.514 Y132.404
G1 F1200 X107.205 Y132.096 E13.41008
G0 F6000 X107.205 Y131.473
G1 F1200 X108.136 Y132.404 E13.48234
G0 F6000 X108.758 Y132.404
G1 F1200 X107.205 Y130.851 E13.60287
G0 F6000 X107.205 Y130.229
G1 F1200 X109.38 Y132.404 E13.77167
G0 F6000 X110.003 Y132.404
G1 F1200 X107.205 Y129.607 E13.98879
G0 F6000 X107.205 Y128.984
G1 F1200 X110.625 Y132.404 E14.25422
G0 F6000 X111.247 Y132.404
G1 F1200 X107.205 Y128.362 E14.56792
G0 F6000 X107.205 Y127.74
G1 F1200 X111.869 Y132.404 E14.9299
G0 F6000 X112.492 Y132.404
G1 F1200 X107.205 Y127.118 E15.34019
G0 F6000 X107.205 Y126.495
G1 F1200 X112.793 Y132.083 E15.77388
G0 F6000 X112.793 Y131.461
G1 F1200 X107.205 Y125.873 E16.20757
G0 F6000 X107.205 Y125.251
G1 F1200 X112.793 Y130.838 E16.64122
G0 F6000 X112.793 Y130.216
G1 F1200 X107.205 Y124.628 E17.07491
G0 F6000 X107.205 Y124.006
G1 F1200 X112.793 Y129.594 E17.5086
G0 F6000 X112.793 Y128.972
G1 F1200 X107.205 Y123.384 E17.94229
G0 F6000 X107.205 Y122.762
G1 F1200 X112.793 Y128.349 E18.37594
G0 F6000 X112.793 Y127.727
G1 F1200 X107.205 Y122.139 E18.80963
G0 F6000 X107.205 Y121.517
G1 F1200 X112.793 Y127.105 E19.24332
G0 F6000 X112.793 Y126.483
G1 F1200 X107.205 Y120.895 E19.67701
G0 F6000 X107.205 Y120.273
G1 F1200 X112.793 Y125.86 E20.11066
G0 F6000 X112.793 Y125.238
G1 F1200 X107.205 Y119.65 E20.54435
G0 F6000 X107.205 Y119.028
G1 F1200 X112.793 Y124.616 E20.97804
G0 F6000 X112.793 Y123.994
G1 F1200 X107.205 Y118.406 E21.41173
G0 F6000 X107.205 Y117.784
G1 F1200 X112.793 Y123.371 E21.84538
G0 F6000 X112.793 Y122.749
G1 F1200 X107.205 Y117.161 E22.27907
G0 F6000 X107.205 Y116.539
G1 F1200 X112.793 Y122.127 E22.71276
G0 F6000 X112.793 Y121.504
G1 F1200 X107.205 Y115.917 E23.14641
G0 F6000 X107.205 Y115.295
G1 F1200 X112.793 Y120.882 E23.58007
G0 F6000 X112.793 Y120.26
G1 F1200 X107.205 Y114.672 E24.01376
G0 F6000 X107.205 Y114.05
G1 F1200 X112.793 Y119.638 E24.44745
G0 F6000 X112.793 Y119.015
G1 F1200 X107.205 Y113.428 E24.8811
G0 F6000 X107.205 Y112.806
G1 F1200 X112.793 Y118.393 E25.31475
G0 F6000 X112.793 Y117.771
G1 F1200 X107.205 Y112.183 E25.74844
G0 F6000 X107.205 Y111.561
G1 F1200 X112.793 Y117.149 E26.18213
G0 F6000 X112.793 Y116.526
G1 F1200 X107.205 Y110.939 E26.61578
G0 F6000 X107.705 Y110.817
G1 F1200 X112.793 Y115.904 E27.01062
G0 F6000 X112.793 Y115.282
G1 F1200 X108.328 Y110.817 E27.35716
G0 F6000 X108.95 Y110.817
G1 F1200 X112.793 Y114.66 E27.65542
G0 F6000 X112.793 Y114.037
G1 F1200 X109.572 Y110.817 E27.90536
G0 F6000 X110.194 Y110.817
G1 F1200 X112.793 Y113.415 E28.10703
G0 F6000 X112.793 Y112.793
G1 F1200 X110.817 Y110.817 E28.26039
G0 F6000 X111.439 Y110.817
G1 F1200 X112.793 Y112.171 E28.36548
G0 F6000 X112.793 Y111.548
G1 F1200 X112.061 Y110.817 E28.42225
G0 F6000 X112.683 Y110.817
G1 F1200 X112.793 Y110.926 E28.43075
G1 F2700 E23.43075
G1 F600 Z0.5
;MESH:NONMESH
G0 F6000 X106.6 Y133.011 Z0.5
;TIME_ELAPSED:34.915238
;LAYER:1
M140 S50
M106 S127.5
;TYPE:WALL-INNER
;MESH:FixedJoint.stl
G1 F600 Z0.5
G1 F2700 E28.43075
G1 F1350 X106.6 Y110.211 E29.26491
G1 X113.4 Y110.211 E29.5137
G1 X113.4 Y133.011 E30.34786
G1 X106.6 Y133.011 E30.59665
G0 F7500 X106.16 Y133.451
G1 F1350 X106.16 Y109.771 E31.46301
G1 X113.84 Y109.771 E31.74399
G1 X113.84 Y133.451 E32.61035
G1 X106.16 Y133.451 E32.89133
G0 F7500 X105.72 Y133.891
;TYPE:WALL-OUTER
G1 F1350 X105.72 Y109.331 E33.78989
G1 X114.28 Y109.331 E34.10307
G1 X114.28 Y133.891 E35.00162
G1 X105.72 Y133.891 E35.3148
G1 F2700 E30.3148
G1 F600 Z0.7
G0 F7500 X107.03 Y132.581 Z0.7
;TYPE:SKIN
G1 F600 Z0.5
G1 F2700 E35.3148
G1 F1350 X107.03 Y110.641 E36.1175
G1 X112.97 Y110.641 E36.33482
G1 X112.97 Y132.581 E37.13752
G1 X107.03 Y132.581 E37.35484
G1 F2700 E32.35484
G1 F600 Z0.7
G0 F7500 X112.792 Y131.753 Z0.7
G1 F600 Z0.5
G1 F2700 E37.35484
G1 F1350 X112.141 Y132.404 E37.38853
G0 F7500 X111.519 Y132.404
G1 F1350 X112.792 Y131.13 E37.45442
G0 F7500 X112.792 Y130.508
G1 F1350 X110.896 Y132.404 E37.55252
G0 F7500 X110.274 Y132.404
G1 F1350 X112.792 Y129.886 E37.6828
G0 F7500 X112.792 Y129.264
G1 F1350 X109.652 Y132.404 E37.84527
G0 F7500 X109.03 Y132.404
G1 F1350 X112.792 Y128.641 E38.03994
G0 F7500 X112.792 Y128.019
G1 F1350 X108.407 Y132.404 E38.26682
G0 F7500 X107.785 Y132.404
G1 F1350 X112.792 Y127.397 E38.52589
G0 F7500 X112.792 Y126.775
G1 F1350 X107.205 Y132.361 E38.81494
G0 F7500 X107.205 Y131.739
G1 F1350 X112.792 Y126.152 E39.10401
G0 F7500 X112.792 Y125.53
G1 F1350 X107.205 Y131.117 E39.39309
G0 F7500 X107.205 Y130.495
G1 F1350 X112.792 Y124.908 E39.68216
G0 F7500 X112.792 Y124.286
G1 F1350 X107.205 Y129.872 E39.97121
G0 F7500 X107.205 Y129.25
G1 F1350 X112.792 Y123.663 E40.26029
G0 F7500 X112.792 Y123.041
G1 F1350 X107.205 Y128.628 E40.54936
G0 F7500 X107.205 Y128.006
G1 F1350 X112.792 Y122.419 E40.83844
G0 F7500 X112.792 Y121.797
G1 F1350 X107.205 Y127.383 E41.12748
G0 F7500 X107.205 Y126.761
G1 F1350 X112.792 Y121.174 E41.41656
G0 F7500 X112.792 Y120.552
G1 F1350 X107.205 Y126.139 E41.70563
G0 F7500 X107.205 Y125.517
G1 F1350 X112.792 Y119.93 E41.99471
G0 F7500 X112.792 Y119.308
G1 F1350 X107.205 Y124.894 E42.28376
G0 F7500 X107.205 Y124.272
G1 F1350 X112.792 Y118.685 E42.57283
G0 F7500 X112.792 Y118.063
G1 F1350 X107.205 Y123.65 E42.86191
G0 F7500 X107.205 Y123.028
G1 F1350 X112.792 Y117.441 E43.15098
G0 F7500 X112.792 Y116.818
G1 F1350 X107.205 Y122.405 E43.44006
G0 F7500 X107.205 Y121.783
G1 F1350 X112.792 Y116.196 E43.72913
G0 F7500 X112.792 Y115.574
G1 F1350 X107.205 Y121.161 E44.01821
G0 F7500 X107.205 Y120.539
G1 F1350 X112.792 Y114.952 E44.30728
G0 F7500 X112.792 Y114.329
G1 F1350 X107.205 Y119.916 E44.59636
G0 F7500 X107.205 Y119.294
G1 F1350 X112.792 Y113.707 E44.88543
G0 F7500 X112.792 Y113.085
G1 F1350 X107.205 Y118.672 E45.17451
G0 F7500 X107.205 Y118.05
G1 F1350 X112.792 Y112.463 E45.46358
G0 F7500 X112.792 Y111.84
G1 F1350 X107.205 Y117.427 E45.75266
G0 F7500 X107.205 Y116.805
G1 F1350 X112.792 Y111.218 E46.04173
G0 F7500 X112.572 Y110.816
G1 F1350 X107.205 Y116.183 E46.31942
G0 F7500 X107.205 Y115.561
G1 F1350 X111.95 Y110.816 E46.56493
G0 F7500 X111.328 Y110.816
G1 F1350 X107.205 Y114.938 E46.77823
G0 F7500 X107.205 Y114.316
G1 F1350 X110.706 Y110.816 E46.95935
G0 F7500 X110.083 Y110.816
G1 F1350 X107.205 Y113.694 E47.10826
G0 F7500 X107.205 Y113.072
G1 F1350 X109.461 Y110.816 E47.22499
G0 F7500 X108.839 Y110.816
G1 F1350 X107.205 Y112.449 E47.30951
G0 F7500 X107.205 Y111.827
G1 F1350 X108.217 Y110.816 E47.36184
G0 F7500 X107.594 Y110.816
G1 F1350 X107.205 Y111.205 E47.38197
G1 F2700 E42.38197
G1 F600 Z0.7
;MESH:NONMESH
G0 F7500 X106.6 Y133.011 Z0.7
;TIME_ELAPSED:63.376781
;LAYER:2
M106 S255
;TYPE:WALL-INNER
;MESH:FixedJoint.stl
G1 F600 Z0.7
G1 F2700 E47.38197
G1 F1500 X106.6 Y110.211 E48.21613
G1 X113.4 Y110.211 E48.46492
G1 X113.4 Y133.011 E49.29908
G1 X106.6 Y133.011 E49.54787
G0 F9000 X106.16 Y133.451
G1 F1500 X106.16 Y109.771 E50.41423
G1 X113.84 Y109.771 E50.69521
G1 X113.84 Y133.451 E51.56157
G1 X106.16 Y133.451 E51.84255
G0 F9000 X105.72 Y133.891
;TYPE:WALL-OUTER
G1 F1500 X105.72 Y109.331 E52.74111
G1 X114.28 Y109.331 E53.05429
G1 X114.28 Y133.891 E53.95284
G1 X105.72 Y133.891 E54.26602
G1 F2700 E49.26602
G1 F600 Z0.9
G0 F9000 X107.03 Y132.581 Z0.9
;TYPE:SKIN
G1 F600 Z0.7
G1 F2700 E54.26602
G1 F1500 X107.03 Y110.641 E55.06872
G1 X112.97 Y110.641 E55.28604
G1 X112.97 Y132.581 E56.08874
G1 X107.03 Y132.581 E56.30606
G0 F9000 X107.514 Y132.404
G1 F1500 X107.205 Y132.096 E56.32202
G0 F9000 X107.205 Y131.473
G1 F1500 X108.136 Y132.404 E56.3702
G0 F9000 X108.758 Y132.404
G1 F1500 X107.205 Y130.851 E56.45055
G0 F9000 X107.205 Y130.229
G1 F1500 X109.38 Y132.404 E56.56308
G0 F9000 X110.003 Y132.404
G1 F1500 X107.205 Y129.607 E56.70783
G0 F9000 X107.205 Y128.984
G1 F1500 X110.625 Y132.404 E56.88478
G0 F9000 X111.247 Y132.404
G1 F1500 X107.205 Y128.362 E57.09392
G0 F9000 X107.205 Y127.74
G1 F1500 X111.869 Y132.404 E57.33524
G0 F9000 X112.492 Y132.404
G1 F1500 X107.205 Y127.118 E57.60876
G0 F9000 X107.205 Y126.495
G1 F1500 X112.793 Y132.083 E57.89789
G0 F9000 X112.793 Y131.461
G1 F1500 X107.205 Y125.873 E58.18702
G0 F9000 X107.205 Y125.251
G1 F1500 X112.793 Y130.838 E58.47612
G0 F9000 X112.793 Y130.216
G1 F1500 X107.205 Y124.628 E58.76524
G0 F9000 X107.205 Y124.006
G1 F1500 X112.793 Y129.594 E59.05437
G0 F9000 X112.793 Y128.972
G1 F1500 X107.205 Y123.384 E59.3435
G0 F9000 X107.205 Y122.762
G1 F1500 X112.793 Y128.349 E59.6326
G0 F9000 X112.793 Y127.727
G1 F1500 X107.205 Y122.139 E59.92172
G0 F9000 X107.205 Y121.517
G1 F1500 X112.793 Y127.105 E60.21085
G0 F9000 X112.793 Y126.483
G1 F1500 X107.205 Y120.895 E60.49998
G0 F9000 X107.205 Y120.273
G1 F1500 X112.793 Y125.86 E60.78908
G0 F9000 X112.793 Y125.238
G1 F1500 X107.205 Y119.65 E61.0782
G0 F9000 X107.205 Y119.028
G1 F1500 X112.793 Y124.616 E61.36733
G0 F9000 X112.793 Y123.994
G1 F1500 X107.205 Y118.406 E61.65646
G0 F9000 X107.205 Y117.784
G1 F1500 X112.793 Y123.371 E61.94556
G0 F9000 X112.793 Y122.749
G1 F1500 X107.205 Y117.161 E62.23469
G0 F9000 X107.205 Y116.539
G1 F1500 X112.793 Y122.127 E62.52381
G0 F9000 X112.793 Y121.504
G1 F1500 X107.205 Y115.917 E62.81291
G0 F9000 X107.205 Y115.295
G1 F1500 X112.793 Y120.882 E63.10201
G0 F9000 X112.793 Y120.26
G1 F1500 X107.205 Y114.672 E63.39114
G0 F9000 X107.205 Y114.05
G1 F1500 X112.793 Y119.638 E63.68027
G0 F9000 X112.793 Y119.015
G1 F1500 X107.205 Y113.428 E63.96937
G0 F9000 X107.205 Y112.806
G1 F1500 X112.793 Y118.393 E64.25847
G0 F9000 X112.793 Y117.771
G1 F1500 X107.205 Y112.183 E64.54759
G0 F9000 X107.205 Y111.561
G1 F1500 X112.793 Y117.149 E64.83672
G0 F9000 X112.793 Y116.526
G1 F1500 X107.205 Y110.939 E65.12582
G0 F9000 X107.705 Y110.817
G1 F1500 X112.793 Y115.904 E65.38905
G0 F9000 X112.793 Y115.282
G1 F1500 X108.328 Y110.817 E65.62007
G0 F9000 X108.95 Y110.817
G1 F1500 X112.793 Y114.66 E65.81891
G0 F9000 X112.793 Y114.037
G1 F1500 X109.572 Y110.817 E65.98554
G0 F9000 X110.194 Y110.817
G1 F1500 X112.793 Y113.415 E66.11999
G0 F9000 X112.793 Y112.793
G1 F1500 X110.817 Y110.817 E66.22223
G0 F9000 X111.439 Y110.817
G1 F1500 X112.793 Y112.171 E66.29229
G0 F9000 X112.793 Y111.548
G1 F1500 X112.061 Y110.817 E66.33014
G0 F9000 X112.683 Y110.817
G1 F1500 X112.793 Y110.926 E66.3358
G1 F2700 E61.3358
G1 F600 Z0.9
;MESH:NONMESH
G0 F9000 X106.6 Y133.011 Z0.9
;TIME_ELAPSED:89.469218
;LAYER:3
;TYPE:WALL-INNER
;MESH:FixedJoint.stl
G1 F600 Z0.9
G1 F2700 E66.3358
G1 F1500 X106.6 Y110.211 E67.16997
G1 X113.4 Y110.211 E67.41875
G1 X113.4 Y133.011 E68.25292
G1 X106.6 Y133.011 E68.5017
G0 F9000 X106.16 Y133.451
G1 F1500 X106.16 Y109.771 E69.36806
G1 X113.84 Y109.771 E69.64904
G1 X113.84 Y133.451 E70.5154
G1 X106.16 Y133.451 E70.79639
G0 F9000 X105.72 Y133.891
;TYPE:WALL-OUTER
G1 F1500 X105.72 Y109.331 E71.69494
G1 X114.28 Y109.331 E72.00812
G1 X114.28 Y133.891 E72.90667
G1 X105.72 Y133.891 E73.21985
G1 F2700 E68.21985
G1 F600 Z1.1
G0 F9000 X107.03 Y132.581 Z1.1
;TYPE:SKIN
G1 F600 Z0.9
G1 F2700 E73.21985
G1 F1500 X107.03 Y110.641 E74.02255
G1 X112.97 Y110.641 E74.23987
G1 X112.97 Y132.581 E75.04257
G1 X107.03 Y132.581 E75.2599
G1 F2700 E70.2599
G1 F600 Z1.1
G0 F9000 X112.792 Y131.753 Z1.1
G1 F600 Z0.9
G1 F2700 E75.2599
G1 F1500 X112.141 Y132.404 E75.29358
G0 F9000 X111.519 Y132.404
G1 F1500 X112.792 Y131.13 E75.35947
G0 F9000 X112.792 Y130.508
G1 F1500 X110.896 Y132.404 E75.45757
G0 F9000 X110.274 Y132.404
G1 F1500 X112.792 Y129.886 E75.58785
G0 F9000 X112.792 Y129.264
G1 F1500 X109.652 Y132.404 E75.75032
G0 F9000 X109.03 Y132.404
G1 F1500 X112.792 Y128.641 E75.94499
G0 F9000 X112.792 Y128.019
G1 F1500 X108.407 Y132.404 E76.17188
G0 F9000 X107.785 Y132.404
G1 F1500 X112.792 Y127.397 E76.43094
G0 F9000 X112.792 Y126.775
G1 F1500 X107.205 Y132.361 E76.71999
G0 F9000 X107.205 Y131.739
G1 F1500 X112.792 Y126.152 E77.00907
G0 F9000 X112.792 Y125.53
G1 F1500 X107.205 Y131.117 E77.29814
G0 F9000 X107.205 Y130.495
G1 F1500 X112.792 Y124.908 E77.58722
G0 F9000 X112.792 Y124.286
G1 F1500 X107.205 Y129.872 E77.87626
G0 F9000 X107.205 Y129.25
G1 F1500 X112.792 Y123.663 E78.16534
G0 F9000 X112.792 Y123.041
G1 F1500 X107.205 Y128.628 E78.45441
G0 F9000 X107.205 Y128.006
G1 F1500 X112.792 Y122.419 E78.74349
G0 F9000 X112.792 Y121.797
G1 F1500 X107.205 Y127.383 E79.03254
G0 F9000 X107.205 Y126.761
G1 F1500 X112.792 Y121.174 E79.32161
G0 F9000 X112.792 Y120.552
G1 F1500 X107.205 Y126.139 E79.61069
G0 F9000 X107.205 Y125.517
G1 F1500 X112.792 Y119.93 E79.89976
G0 F9000 X112.792 Y119.308
G1 F1500 X107.205 Y124.894 E80.18881
G0 F9000 X107.205 Y124.272
G1 F1500 X112.792 Y118.685 E80.47789
G0 F9000 X112.792 Y118.063
G1 F1500 X107.205 Y123.65 E80.76696
G0 F9000 X107.205 Y123.028
G1 F1500 X112.792 Y117.441 E81.05604
G0 F9000 X112.792 Y116.818
G1 F1500 X107.205 Y122.405 E81.34511
G0 F9000 X107.205 Y121.783
G1 F1500 X112.792 Y116.196 E81.63419
G0 F9000 X112.792 Y115.574
G1 F1500 X107.205 Y121.161 E81.92326
G0 F9000 X107.205 Y120.539
G1 F1500 X112.792 Y114.952 E82.21234
G0 F9000 X112.792 Y114.329
G1 F1500 X107.205 Y119.916 E82.50141
G0 F9000 X107.205 Y119.294
G1 F1500 X112.792 Y113.707 E82.79049
G0 F9000 X112.792 Y113.085
G1 F1500 X107.205 Y118.672 E83.07956
G0 F9000 X107.205 Y118.05
G1 F1500 X112.792 Y112.463 E83.36864
G0 F9000 X112.792 Y111.84
G1 F1500 X107.205 Y117.427 E83.65771
G0 F9000 X107.205 Y116.805
G1 F1500 X112.792 Y111.218 E83.94679
G0 F9000 X112.572 Y110.816
G1 F1500 X107.205 Y116.183 E84.22448
G0 F9000 X107.205 Y115.561
G1 F1500 X111.95 Y110.816 E84.46999
G0 F9000 X111.328 Y110.816
G1 F1500 X107.205 Y114.938 E84.68329
G0 F9000 X107.205 Y114.316
G1 F1500 X110.706 Y110.816 E84.86441
G0 F9000 X110.083 Y110.816
G1 F1500 X107.205 Y113.694 E85.01331
G0 F9000 X107.205 Y113.072
G1 F1500 X109.461 Y110.816 E85.13004
G0 F9000 X108.839 Y110.816
G1 F1500 X107.205 Y112.449 E85.21456
G0 F9000 X107.205 Y111.827
G1 F1500 X108.217 Y110.816 E85.2669
G0 F9000 X107.594 Y110.816
G1 F1500 X107.205 Y111.205 E85.28702
G1 F2700 E80.28702
G1 F600 Z1.1
;MESH:NONMESH
G0 F9000 X106.6 Y133.011 Z1.1
;TIME_ELAPSED:115.915477
;LAYER:4
;TYPE:WALL-INNER
;MESH:FixedJoint.stl
G1 F600 Z1.1
G1 F2700 E85.28702
G1 F1500 X106.6 Y110.211 E86.12119
G1 X113.4 Y110.211 E86.36997
G1 X113.4 Y133.011 E87.20414
G1 X106.6 Y133.011 E87.45292
G0 F9000 X106.16 Y133.451
G1 F1500 X106.16 Y109.771 E88.31928
G1 X113.84 Y109.771 E88.60026
G1 X113.84 Y133.451 E89.46662
G1 X106.16 Y133.451 E89.74761
G0 F9000 X105.72 Y133.891
;TYPE:WALL-OUTER
