;FLAVOR:Marlin
;TIME:15690
;Filament used: 12.4508m
;Layer height: 0.2
;MINX:31.866
;MINY:31.866
;MINZ:0.3
;MAXX:188.134
;MAXY:188.134
;MAXZ:5.1
;Generated with Cura_SteamEngine 4.2.1
M140 S50
M105
M190 S50
M104 S205
M105
M109 S205
M82 ;absolute extrusion mode
M201 X500.00 Y500.00 Z100.00 E5000.00 ;Setup machine max acceleration
M203 X500.00 Y500.00 Z10.00 E50.00 ;Setup machine max feedrate
M204 P500.00 R1000.00 T500.00 ;Setup Print/Retract/Travel acceleration
M205 X8.00 Y8.00 Z0.40 E5.00 ;Setup Jerk
M220 S100 ;Reset Feedrate
M221 S100 ;Reset Flowrate

G28 ;Home

G92 E0 ;Reset Extruder
G1 Z2.0 F3000 ;Move Z Axis up
G1 X10.1 Y20 Z0.28 F5000.0 ;Move to start position
G1 X10.1 Y200.0 Z0.28 F1500.0 E15 ;Draw the first line
G1 X10.4 Y200.0 Z0.28 F5000.0 ;Move to side a little
G1 X10.4 Y20 Z0.28 F1500.0 E30 ;Draw the second line
G92 E0 ;Reset Extruder
G1 Z2.0 F3000 ;Move Z Axis up

G92 E0
G92 E0
G1 F2700 E-5
;LAYER_COUNT:24
;LAYER:0
M107
G0 F6000 X56.64 Y52.922 Z0.3
;TYPE:SKIRT
G1 F2700 E0
G1 F900 X57.088 Y52.506 E0.03355
G1 X61.039 Y49.108 E0.31954
G1 X61.512 Y48.731 E0.35273
G1 X65.737 Y45.612 E0.64093
G1 X66.241 Y45.269 E0.67439
G1 X70.657 Y42.494 E0.96061
G1 X71.184 Y42.189 E0.99403
G1 X75.823 Y39.737 E1.28199
G1 X76.371 Y39.473 E1.31537
G1 X81.165 Y37.381 E1.60242
G1 X81.732 Y37.159 E1.63584
G1 X86.674 Y35.429 E1.92319
G1 X87.254 Y35.25 E1.9565
G1 X92.319 Y33.891 E2.24429
G1 X92.917 Y33.755 E2.27795
G1 X98.045 Y32.786 E2.56435
G1 X98.645 Y32.695 E2.59766
G1 X103.858 Y32.108 E2.88555
G1 X104.462 Y32.063 E2.91879
G1 X109.689 Y31.866 E3.20585
G1 X110.301 Y31.866 E3.23943
G1 X115.527 Y32.062 E3.52643
G1 X116.133 Y32.107 E3.55978
G1 X121.347 Y32.694 E3.84773
G1 X121.949 Y32.785 E3.88114
G1 X127.077 Y33.755 E4.16755
G1 X127.671 Y33.89 E4.20098
G1 X132.736 Y35.247 E4.48875
G1 X133.317 Y35.426 E4.52211
G1 X138.26 Y37.155 E4.8095
G1 X138.826 Y37.378 E4.84288
G1 X143.62 Y39.469 E5.12991
G1 X144.169 Y39.733 E5.16334
G1 X148.805 Y42.183 E5.4511
G1 X149.331 Y42.487 E5.48444
G1 X153.751 Y45.263 E5.77088
G1 X154.255 Y45.606 E5.80434
G1 X158.479 Y48.723 E6.09243
G1 X158.954 Y49.102 E6.12578
G1 X162.911 Y52.506 E6.41223
G1 X163.359 Y52.921 E6.44575
G1 X167.078 Y56.64 E6.73438
G1 X167.494 Y57.088 E6.76793
G1 X170.892 Y61.039 E7.05392
G1 X171.269 Y61.512 E7.08711
G1 X174.388 Y65.737 E7.37531
G1 X174.731 Y66.241 E7.40877
G1 X177.506 Y70.657 E7.695
G1 X177.81 Y71.184 E7.72838
G1 X180.265 Y75.828 E8.01666
G1 X180.53 Y76.377 E8.05012
G1 X182.617 Y81.161 E8.33655
G1 X182.839 Y81.726 E8.36987
G1 X184.571 Y86.673 E8.65752
G1 X184.75 Y87.254 E8.69088
G1 X186.109 Y92.319 E8.97867
G1 X186.245 Y92.916 E9.01228
G1 X187.214 Y98.042 E9.29857
G1 X187.305 Y98.643 E9.33193
G1 X187.893 Y103.862 E9.62015
G1 X187.938 Y104.468 E9.6535
G1 X188.134 Y109.69 E9.94028
G1 X188.134 Y110.299 E9.97371
G1 X187.939 Y115.521 E10.26048
G1 X187.894 Y116.128 E10.29389
G1 X187.306 Y121.347 E10.58211
G1 X187.215 Y121.949 E10.61553
G1 X186.245 Y127.077 E10.90194
G1 X186.11 Y127.671 E10.93537
G1 X184.753 Y132.736 E11.22313
G1 X184.574 Y133.317 E11.2565
G1 X182.845 Y138.26 E11.54388
G1 X182.623 Y138.825 E11.5772
G1 X180.535 Y143.614 E11.86391
G1 X180.27 Y144.165 E11.89746
G1 X177.817 Y148.806 E12.18554
G1 X177.513 Y149.331 E12.21884
G1 X174.738 Y153.75 E12.5052
G1 X174.394 Y154.255 E12.53873
G1 X171.278 Y158.477 E12.8267
G1 X170.9 Y158.951 E12.85997
G1 X167.494 Y162.911 E13.14662
G1 X167.079 Y163.359 E13.18014
G1 X163.36 Y167.078 E13.46877
G1 X162.912 Y167.494 E13.50232
G1 X158.961 Y170.892 E13.78831
G1 X158.488 Y171.268 E13.82147
G1 X154.265 Y174.386 E14.10955
G1 X153.761 Y174.73 E14.14304
G1 X149.343 Y177.506 E14.42938
G1 X148.816 Y177.811 E14.4628
G1 X144.177 Y180.263 E14.75076
G1 X143.629 Y180.527 E14.78414
G1 X138.835 Y182.619 E15.07119
G1 X138.268 Y182.841 E15.10461
G1 X133.326 Y184.571 E15.39196
G1 X132.746 Y184.75 E15.42527
G1 X127.681 Y186.109 E15.71306
G1 X127.083 Y186.245 E15.74672
G1 X121.955 Y187.214 E16.03312
G1 X121.355 Y187.305 E16.06643
G1 X116.142 Y187.892 E16.35432
G1 X115.538 Y187.937 E16.38756
G1 X110.311 Y188.134 E16.67462
G1 X109.699 Y188.134 E16.7082
G1 X104.473 Y187.938 E16.9952
G1 X103.867 Y187.893 E17.02855
G1 X98.653 Y187.306 E17.3165
G1 X98.051 Y187.215 E17.34991
G1 X92.923 Y186.245 E17.63632
G1 X92.329 Y186.11 E17.66975
G1 X87.264 Y184.753 E17.95752
G1 X86.683 Y184.574 E17.99088
G1 X81.74 Y182.845 E18.27827
G1 X81.174 Y182.622 E18.31165
G1 X76.38 Y180.531 E18.59868
G1 X75.831 Y180.267 E18.63211
G1 X71.193 Y177.816 E18.92
G1 X70.667 Y177.512 E18.95334
G1 X66.247 Y174.736 E19.23978
G1 X65.742 Y174.392 E19.27331
G1 X61.519 Y171.275 E19.56136
G1 X61.045 Y170.897 E19.59463
G1 X57.088 Y167.493 E19.88108
G1 X56.64 Y167.078 E19.91459
G1 X52.921 Y163.359 E20.20323
G1 X52.505 Y162.91 E20.23682
G1 X49.105 Y158.956 E20.523
G1 X48.728 Y158.484 E20.55615
G1 X45.611 Y154.262 E20.84416
G1 X45.267 Y153.757 E20.87769
G1 X42.492 Y149.34 E21.16396
G1 X42.189 Y148.814 E21.19728
G1 X39.735 Y144.172 E21.48543
G1 X39.47 Y143.623 E21.51889
G1 X37.381 Y138.834 E21.80562
G1 X37.159 Y138.268 E21.83898
G1 X35.429 Y133.326 E22.12634
G1 X35.25 Y132.746 E22.15965
G1 X33.891 Y127.681 E22.44744
G1 X33.755 Y127.083 E22.4811
G1 X32.786 Y121.955 E22.7675
G1 X32.695 Y121.356 E22.80075
G1 X32.107 Y116.138 E23.08892
G1 X32.062 Y115.531 E23.12232
G1 X31.866 Y110.31 E23.40905
G1 X31.866 Y109.701 E23.44247
G1 X32.061 Y104.479 E23.72925
G1 X32.106 Y103.872 E23.76265
G1 X32.694 Y98.653 E24.05088
G1 X32.785 Y98.051 E24.08429
G1 X33.755 Y92.923 E24.3707
G1 X33.89 Y92.329 E24.40413
G1 X35.247 Y87.264 E24.6919
G1 X35.427 Y86.683 E24.72528
G1 X37.158 Y81.735 E25.01296
G1 X37.379 Y81.17 E25.04625
G1 X39.465 Y76.386 E25.33267
G1 X39.73 Y75.835 E25.36622
G1 X42.183 Y71.194 E25.6543
G1 X42.487 Y70.669 E25.6876
G1 X45.262 Y66.25 E25.97396
G1 X45.605 Y65.745 E26.00746
G1 X48.723 Y61.52 E26.29563
G1 X49.102 Y61.046 E26.32894
G1 X52.506 Y57.089 E26.61539
G1 X52.921 Y56.641 E26.6489
G1 X56.64 Y52.922 E26.93754
G0 F6000 X56.951 Y53.233
G1 F900 X57.375 Y52.84 E26.96927
G1 X61.326 Y49.442 E27.25525
G1 X61.774 Y49.085 E27.28669
G1 X65.999 Y45.966 E27.57489
G1 X66.475 Y45.641 E27.60652
G1 X70.891 Y42.866 E27.89275
G1 X71.39 Y42.578 E27.92436
G1 X76.029 Y40.126 E28.21232
G1 X76.547 Y39.877 E28.24387
G1 X81.341 Y37.785 E28.53091
G1 X81.877 Y37.574 E28.56253
G1 X86.819 Y35.844 E28.84988
G1 X87.368 Y35.675 E28.8814
G1 X92.433 Y34.316 E29.1692
G1 X92.998 Y34.187 E29.201
G1 X98.126 Y33.218 E29.4874
G1 X98.694 Y33.132 E29.51893
G1 X103.907 Y32.545 E29.80682
G1 X104.479 Y32.502 E29.8383
G1 X109.706 Y32.305 E30.12536
G1 X110.285 Y32.305 E30.15713
G1 X115.511 Y32.501 E30.44413
G1 X116.083 Y32.544 E30.47561
G1 X121.297 Y33.131 E30.76356
G1 X121.867 Y33.217 E30.7952
G1 X126.995 Y34.187 E31.08161
G1 X127.557 Y34.315 E31.11324
G1 X132.622 Y35.672 E31.40101
G1 X133.171 Y35.842 E31.43255
G1 X138.114 Y37.571 E31.71993
G1 X138.65 Y37.781 E31.75152
G1 X143.444 Y39.872 E32.03855
G1 X143.964 Y40.122 E32.07022
G1 X148.6 Y42.572 E32.35798
G1 X149.097 Y42.859 E32.38947
G1 X153.517 Y45.635 E32.67591
G1 X153.994 Y45.96 E32.70759
G1 X158.218 Y49.077 E32.99568
G1 X158.668 Y49.436 E33.02727
G1 X162.625 Y52.84 E33.31372
G1 X163.048 Y53.232 E33.34537
G1 X166.767 Y56.951 E33.63401
G1 X167.16 Y57.375 E33.66574
G1 X170.558 Y61.326 E33.95172
G1 X170.915 Y61.774 E33.98316
G1 X174.034 Y65.999 E34.27136
G1 X174.359 Y66.475 E34.30299
G1 X177.134 Y70.891 E34.58922
G1 X177.421 Y71.389 E34.62076
G1 X179.876 Y76.033 E34.90904
G1 X180.127 Y76.553 E34.94073
G1 X182.214 Y81.337 E35.22716
G1 X182.423 Y81.872 E35.25869
G1 X184.155 Y86.819 E35.54633
G1 X184.325 Y87.368 E35.57787
G1 X185.684 Y92.433 E35.86567
G1 X185.813 Y92.998 E35.89747
G1 X186.782 Y98.124 E36.18376
G1 X186.868 Y98.692 E36.21529
G1 X187.456 Y103.911 E36.50352
G1 X187.499 Y104.484 E36.53505
G1 X187.695 Y109.706 E36.82183
G1 X187.695 Y110.282 E36.85344
G1 X187.5 Y115.504 E37.14022
G1 X187.457 Y116.079 E37.17187
G1 X186.869 Y121.298 E37.46009
G1 X186.783 Y121.867 E37.49167
G1 X185.813 Y126.995 E37.77808
G1 X185.685 Y127.557 E37.80972
G1 X184.328 Y132.622 E38.09748
G1 X184.158 Y133.171 E38.12902
G1 X182.429 Y138.114 E38.41641
G1 X182.219 Y138.649 E38.44795
G1 X180.131 Y143.438 E38.73466
G1 X179.881 Y143.959 E38.76637
G1 X177.428 Y148.6 E39.05445
G1 X177.141 Y149.097 E39.08595
G1 X174.366 Y153.516 E39.37231
G1 X174.04 Y153.993 E39.40402
G1 X170.924 Y158.215 E39.69199
G1 X170.567 Y158.664 E39.72347
G1 X167.161 Y162.624 E40.01012
G1 X166.768 Y163.048 E40.04185
G1 X163.049 Y166.767 E40.33048
G1 X162.625 Y167.16 E40.36221
G1 X158.674 Y170.558 E40.6482
G1 X158.227 Y170.915 E40.67959
G1 X154.004 Y174.033 E40.96767
G1 X153.527 Y174.358 E40.99935
G1 X149.109 Y177.134 E41.28569
G1 X148.61 Y177.422 E41.31731
G1 X143.971 Y179.874 E41.60527
G1 X143.453 Y180.123 E41.63681
G1 X138.659 Y182.215 E41.92386
G1 X138.123 Y182.426 E41.95547
G1 X133.181 Y184.156 E42.24283
G1 X132.632 Y184.325 E42.27435
G1 X127.567 Y185.684 E42.56214
G1 X127.002 Y185.813 E42.59395
G1 X121.874 Y186.782 E42.88035
G1 X121.306 Y186.868 E42.91188
G1 X116.093 Y187.455 E43.19977
G1 X115.521 Y187.498 E43.23125
G1 X110.294 Y187.695 E43.51831
G1 X109.715 Y187.695 E43.55008
G1 X104.489 Y187.499 E43.83708
G1 X103.917 Y187.456 E43.86856
G1 X98.703 Y186.869 E44.15651
G1 X98.133 Y186.783 E44.18814
G1 X93.005 Y185.813 E44.47456
G1 X92.443 Y185.685 E44.50619
G1 X87.378 Y184.328 E44.79395
G1 X86.829 Y184.158 E44.82549
G1 X81.886 Y182.429 E45.11288
G1 X81.35 Y182.219 E45.14447
G1 X76.556 Y180.128 E45.4315
G1 X76.036 Y179.878 E45.46316
G1 X71.398 Y177.427 E45.75105
G1 X70.901 Y177.14 E45.78254
G1 X66.481 Y174.364 E46.06898
G1 X66.003 Y174.038 E46.10074
G1 X61.78 Y170.921 E46.38878
G1 X61.331 Y170.563 E46.4203
G1 X57.374 Y167.159 E46.70675
G1 X56.951 Y166.767 E46.7384
G1 X53.232 Y163.048 E47.02703
G1 X52.839 Y162.623 E47.0588
G1 X49.439 Y158.669 E47.34499
G1 X49.082 Y158.222 E47.37638
G1 X45.965 Y154 E47.66438
G1 X45.64 Y153.523 E47.69606
G1 X42.865 Y149.106 E47.98233
G1 X42.578 Y148.609 E48.01383
G1 X40.124 Y143.967 E48.30198
G1 X39.873 Y143.447 E48.33367
G1 X37.784 Y138.658 E48.6204
G1 X37.574 Y138.123 E48.65194
G1 X35.844 Y133.181 E48.93929
G1 X35.675 Y132.632 E48.97082
G1 X34.316 Y127.567 E49.25861
G1 X34.187 Y127.002 E49.29042
G1 X33.218 Y121.874 E49.57682
G1 X33.132 Y121.306 E49.60835
G1 X32.544 Y116.088 E49.89652
G1 X32.501 Y115.515 E49.92805
G1 X32.305 Y110.294 E50.21478
G1 X32.305 Y109.718 E50.24639
G1 X32.5 Y104.496 E50.53317
G1 X32.543 Y103.921 E50.56481
G1 X33.131 Y98.702 E50.85304
G1 X33.217 Y98.133 E50.88462
G1 X34.187 Y93.005 E51.17103
G1 X34.315 Y92.443 E51.20266
G1 X35.672 Y87.378 E51.49043
G1 X35.842 Y86.828 E51.52202
G1 X37.573 Y81.88 E51.8097
G1 X37.783 Y81.345 E51.84124
G1 X39.869 Y76.561 E52.12766
G1 X40.119 Y76.041 E52.15932
G1 X42.572 Y71.4 E52.4474
G1 X42.859 Y70.903 E52.4789
G1 X45.634 Y66.484 E52.76526
G1 X45.959 Y66.007 E52.79694
G1 X49.077 Y61.782 E53.08511
G1 X49.436 Y61.332 E53.1167
G1 X52.84 Y57.375 E53.40315
G1 X53.232 Y56.952 E53.4348
G1 X56.951 Y53.233 E53.72343
G0 F6000 X57.262 Y53.544
G1 F900 X57.662 Y53.174 E53.75334
G1 X61.613 Y49.776 E54.03933
G1 X62.035 Y49.439 E54.06896
G1 X66.26 Y46.32 E54.35716
G1 X66.709 Y46.014 E54.38698
G1 X71.125 Y43.239 E54.67321
G1 X71.595 Y42.967 E54.70301
G1 X76.234 Y40.515 E54.99097
G1 X76.723 Y40.28 E55.02074
G1 X81.517 Y38.188 E55.30779
G1 X82.022 Y37.99 E55.33756
G1 X86.964 Y36.26 E55.62491
G1 X87.482 Y36.1 E55.65466
G1 X92.547 Y34.741 E55.94246
G1 X93.08 Y34.619 E55.97246
G1 X98.208 Y33.65 E56.25887
G1 X98.744 Y33.57 E56.28861
G1 X103.957 Y32.983 E56.5765
G1 X104.496 Y32.942 E56.60617
G1 X109.723 Y32.745 E56.89322
G1 X110.268 Y32.745 E56.92313
G1 X115.494 Y32.941 E57.21013
G1 X116.034 Y32.982 E57.23985
G1 X121.248 Y33.569 E57.5278
G1 X121.785 Y33.649 E57.5576
G1 X126.913 Y34.619 E57.84401
G1 X127.443 Y34.74 E57.87384
G1 X132.508 Y36.097 E58.16161
G1 X133.026 Y36.257 E58.19136
G1 X137.969 Y37.986 E58.47874
G1 X138.475 Y38.184 E58.50856
G1 X143.269 Y40.275 E58.79559
G1 X143.758 Y40.511 E58.82539
G1 X148.394 Y42.961 E59.11315
G1 X148.863 Y43.232 E59.14288
G1 X153.283 Y46.008 E59.42932
G1 X153.733 Y46.314 E59.45918
G1 X157.957 Y49.431 E59.74727
G1 X158.381 Y49.769 E59.77703
G1 X162.338 Y53.173 E60.06348
G1 X162.737 Y53.543 E60.09335
G1 X166.456 Y57.262 E60.38198
G1 X166.826 Y57.662 E60.41188
G1 X170.224 Y61.613 E60.69787
G1 X170.561 Y62.035 E60.72751
G1 X173.68 Y66.26 E61.01571
G1 X173.986 Y66.709 E61.04553
G1 X176.761 Y71.125 E61.33175
G1 X177.032 Y71.595 E61.36153
G1 X179.487 Y76.239 E61.64981
G1 X179.723 Y76.729 E61.67965
G1 X181.81 Y81.513 E61.96609
G1 X182.008 Y82.017 E61.99581
G1 X183.74 Y86.964 E62.28345
G1 X183.9 Y87.482 E62.31321
G1 X185.259 Y92.547 E62.601
G1 X185.381 Y93.079 E62.63095
G1 X186.35 Y98.205 E62.91725
G1 X186.43 Y98.741 E62.94699
G1 X187.018 Y103.96 E63.23521
G1 X187.059 Y104.501 E63.26499
G1 X187.255 Y109.723 E63.55177
G1 X187.255 Y110.266 E63.58157
G1 X187.06 Y115.488 E63.86835
G1 X187.019 Y116.03 E63.89818
G1 X186.431 Y121.249 E64.18641
G1 X186.351 Y121.785 E64.21615
G1 X185.381 Y126.913 E64.50256
G1 X185.26 Y127.443 E64.53239
G1 X183.903 Y132.508 E64.82016
G1 X183.743 Y133.026 E64.84991
G1 X182.014 Y137.969 E65.1373
G1 X181.816 Y138.474 E65.16706
G1 X179.728 Y143.263 E65.45377
G1 X179.492 Y143.754 E65.48367
G1 X177.039 Y148.395 E65.77175
G1 X176.768 Y148.863 E65.80143
G1 X173.993 Y153.282 E66.08779
G1 X173.686 Y153.732 E66.11769
G1 X170.57 Y157.954 E66.40566
G1 X170.233 Y158.377 E66.43534
G1 X166.827 Y162.337 E66.72199
G1 X166.457 Y162.737 E66.75189
G1 X162.738 Y166.456 E67.04053
G1 X162.338 Y166.826 E67.07043
G1 X158.387 Y170.224 E67.35642
G1 X157.965 Y170.561 E67.38606
G1 X153.742 Y173.679 E67.67414
G1 X153.293 Y173.985 E67.70395
G1 X148.875 Y176.761 E67.9903
G1 X148.405 Y177.033 E68.0201
G1 X143.766 Y179.485 E68.30806
G1 X143.277 Y179.72 E68.33784
G1 X138.483 Y181.812 E68.62489
G1 X137.978 Y182.01 E68.65465
G1 X133.036 Y183.74 E68.942
G1 X132.518 Y183.9 E68.97176
G1 X127.453 Y185.259 E69.25955
G1 X126.92 Y185.381 E69.28956
G1 X121.792 Y186.35 E69.57596
G1 X121.256 Y186.43 E69.6057
G1 X116.043 Y187.017 E69.89359
G1 X115.504 Y187.058 E69.92326
G1 X110.277 Y187.255 E70.21032
G1 X109.732 Y187.255 E70.24023
G1 X104.506 Y187.059 E70.52723
G1 X103.966 Y187.018 E70.55695
G1 X98.752 Y186.431 E70.84489
G1 X98.215 Y186.351 E70.87469
G1 X93.087 Y185.381 E71.1611
G1 X92.557 Y185.26 E71.19094
G1 X87.492 Y183.903 E71.4787
G1 X86.974 Y183.743 E71.50845
G1 X82.031 Y182.014 E71.79584
G1 X81.525 Y181.816 E71.82566
G1 X76.731 Y179.725 E72.11269
G1 X76.242 Y179.489 E72.14248
G1 X71.604 Y177.038 E72.43037
G1 X71.135 Y176.767 E72.4601
G1 X66.715 Y173.991 E72.74653
G1 X66.265 Y173.684 E72.77643
G1 X62.042 Y170.567 E73.06448
G1 X61.618 Y170.23 E73.0942
G1 X57.661 Y166.826 E73.38065
G1 X57.262 Y166.456 E73.41051
G1 X53.543 Y162.737 E73.69915
G1 X53.172 Y162.336 E73.72913
G1 X49.772 Y158.382 E74.01531
G1 X49.436 Y157.961 E74.04487
G1 X46.319 Y153.739 E74.33288
G1 X46.013 Y153.289 E74.36274
G1 X43.238 Y148.872 E74.64901
G1 X42.967 Y148.403 E74.67874
G1 X40.513 Y143.761 E74.9669
G1 X40.277 Y143.271 E74.99674
G1 X38.188 Y138.482 E75.28348
G1 X37.99 Y137.978 E75.31319
G1 X36.26 Y133.036 E75.60054
G1 X36.1 Y132.518 E75.6303
G1 X34.741 Y127.453 E75.91809
G1 X34.619 Y126.92 E75.9481
G1 X33.65 Y121.792 E76.2345
G1 X33.57 Y121.257 E76.26419
G1 X32.982 Y116.039 E76.55236
G1 X32.941 Y115.498 E76.58213
G1 X32.745 Y110.277 E76.86886
G1 X32.745 Y109.734 E76.89866
G1 X32.94 Y104.512 E77.18544
G1 X32.981 Y103.97 E77.21527
G1 X33.569 Y98.751 E77.50349
G1 X33.649 Y98.215 E77.53323
G1 X34.619 Y93.087 E77.81965
G1 X34.74 Y92.557 E77.84948
G1 X36.097 Y87.492 E78.13725
G1 X36.257 Y86.974 E78.167
G1 X37.988 Y82.026 E78.45468
G1 X38.186 Y81.521 E78.48445
G1 X40.272 Y76.737 E78.77086
G1 X40.508 Y76.246 E78.80076
G1 X42.961 Y71.605 E79.08884
G1 X43.232 Y71.137 E79.11852
G1 X46.007 Y66.718 E79.40488
G1 X46.313 Y66.268 E79.43475
G1 X49.431 Y62.043 E79.72292
G1 X49.769 Y61.619 E79.75267
G1 X53.173 Y57.662 E80.03912
G1 X53.543 Y57.263 E80.06899
G1 X57.262 Y53.544 E80.35762
